!!!!SEGMENT: pl-cz-iii-208_engel-salve-regina-B.krn
!!!id: 17xx:206
!!!COM: Engel, Jan
!!!OTL: Salve Regina in B
!!!PDT:
!!!SMS-siglum: PL-CZ
!!!SMS-shelfmark: III-208
!!!NIFC-rismID:
!!!URL-scan: http://repozytorium.nifc.pl/skany/pl-cz-nut--iii-208
!!!ONB-nifc:
!!!ENC:Anastazja Marusiak
!!!END: 2020-04-25
**kern	**fba	**dynam	**kern	**dynam	**kern	**dynam	**kern	**dynam	**kern	**text	**kern	**text	**kern	**text	**kern	**text	**dynam
*part8	*LO	*part8	*part7	*part7	*part6	*part6	*part5	*part5	*part4	*part4	*part3	*part3	*part2	*part2	*part1	*part1	*part1
*staff8	*	*	*staff7	*	*staff6	*	*staff5	*	*staff4	*staff4	*staff3	*staff3	*staff2	*staff2	*staff1	*staff1	*
*I"Organo.	*	*	*I"Violone	*	*I"Violino Secundo.	*	*I"Violino Primo.	*	*I"Baſso	*	*I"Tenore	*	*I"Alto	*	*I"Canto	*	*
*I'Org	*	*	*I'Vne	*	*I'Vn II	*	*I'Vn I	*	*I'B	*	*I'T	*	*I'A	*	*I'C	*	*
*clefF4	*	*	*clefF4	*	*clefG2	*	*clefG2	*	*clefF4	*	*clefC4	*	*clefC3	*	*clefC1	*	*
*k[b-e-]	*	*	*k[b-e-]	*	*k[b-e-]	*	*k[b-e-]	*	*k[b-e-]	*	*k[b-e-]	*	*k[b-e-]	*	*k[b-e-]	*	*
*g:	*	*	*g:	*	*g:	*	*g:	*	*g:	*	*g:	*	*g:	*	*g:	*	*
*M2/4	*	*	*M2/4	*	*M2/4	*	*M2/4	*	*M2/4	*	*M2/4	*	*M2/4	*	*M2/4	*	*
=1	=1	=1	=1	=1	=1	=1	=1	=1	=1	=1	=1	=1	=1	=1	=1	=1	=1
*	*	*below	*	*	*	*	*	*	*	*	*	*	*	*	*	*	*
!	!	!	!	!	!	!	!	!	!LO:TX:a:t=21.	!	!LO:TX:a:t=21.	!	!LO:TX:a:t=18	!	!LO:TX:b:t=18	!	!
!	!	!	!	!	!	!	!	!	!LO:N:vis=00	!	!LO:N:vis=00	!	!LO:N:vis=00	!	!LO:N:vis=00	!	!
4BB-/	.	.	4BB-/	.	4.d/	.	8.ff\L	.	0r	.	0r	.	0r	.	0r	.	.
.	.	.	.	.	.	.	16bb-\Jk	.	.	.	.	.	.	.	.	.	.
4BB-/	.	.	4BB-/	.	.	.	8.b-\L	.	.	.	.	.	.	.	.	.	.
.	.	.	.	.	8B-/	.	.	.	.	.	.	.	.	.	.	.	.
.	.	.	.	.	.	.	16dd\Jk	.	.	.	.	.	.	.	.	.	.
=2	=2	=2	=2	=2	=2	=2	=2	=2	=2	=2	=2	=2	=2	=2	=2	=2	=2
8r	.	.	8r	.	8B-T/L	.	8dd\L	.	.	.	.	.	.	.	.	.	.
16F\LL	.	.	16F\LL	.	8A/J	.	8cc\J	.	.	.	.	.	.	.	.	.	.
16E-\JJ	.	.	16E-\JJ	.	.	.	.	.	.	.	.	.	.	.	.	.	.
!LO:TX:a:t=P:problem:mixedbeam	!	!	!LO:TX:a:t=P:problem:mixedbeam	!	!	!	!	!	!	!	!	!	!	!	!	!	!
8F\L	.	.	8F\L	.	8r	.	8r	.	.	.	.	.	.	.	.	.	.
8FF/J	.	.	8FF/J	.	8a/	.	8cc\	.	.	.	.	.	.	.	.	.	.
=3	=3	=3	=3	=3	=3	=3	=3	=3	=3	=3	=3	=3	=3	=3	=3	=3	=3
*	*	*	*	*	*	*	*	*below	*	*	*	*	*	*	*	*	*
!LO:TX:b:t=P:problem:p=p: :global	!	!	!LO:TX:a:t=P:problem:p=p: :global	!	!	!LO:DY:a	!LO:TX:a:t=P:problem:p=p: :global	!	!	!	!	!	!	!	!	!	!
4F\	.	p	4F\	p	8.a\L	p	8.cc\L	p	.	.	.	.	.	.	.	.	.
.	.	.	.	.	16cc\Jk	.	16ee-\Jk	.	.	.	.	.	.	.	.	.	.
4F\	.	.	4F\	.	8.b-\L	.	8.dd\L	.	.	.	.	.	.	.	.	.	.
.	.	.	.	.	16a\Jk	.	16cc\Jk	.	.	.	.	.	.	.	.	.	.
=4	=4	=4	=4	=4	=4	=4	=4	=4	=4	=4	=4	=4	=4	=4	=4	=4	=4
!LO:TX:a:t=P:problem:mixedbeam	!	!	!LO:TX:a:t=P:problem:mixedbeam	!	!	!	!LO:TX:a:t=P:problem:f=f: :global	!	!	!	!	!	!	!	!	!	!
8BB-/L	.	.	8BB-/L	.	(8b-\L	f	8dd\L	f	.	.	.	.	.	.	.	.	.
!LO:TX:b:t=P:problem:f=f: :global	!	!	!LO:TX:a:t=P:problem:f=f: :global	!	!	!	!	!	!	!	!	!	!	!	!	!	!
!	!	!	!	!	!	!	!LO:TUP:a:problem:klamra łukowa	!	!	!	!	!	!	!	!	!	!
(>8B-\	.	f	(>8B-\	f	8dd\	.	24bb-\L	.	.	.	.	.	.	.	.	.	.
.	.	.	.	.	.	.	24aa\	.	.	.	.	.	.	.	.	.	.
.	.	.	.	.	.	.	24gg\JJ	.	.	.	.	.	.	.	.	.	.
!	!	!	!	!	!	!	!LO:TX:a:t=|	!	!	!	!	!	!	!	!	!	!
8A\	.	.	8A\	.	8cc\	.	16ff\LL	.	.	.	.	.	.	.	.	.	.
!	!	!	!	!	!	!	!LO:TX:a:t=|	!	!	!	!	!	!	!	!	!	!
.	.	.	.	.	.	.	16ff\	.	.	.	.	.	.	.	.	.	.
!	!	!	!	!	!	!	!LO:TX:a:t=|	!	!	!	!	!	!	!	!	!	!
8B-\J)	.	.	8B-\J)	.	8dd\J)	.	16ff\	.	.	.	.	.	.	.	.	.	.
!	!	!	!	!	!	!	!LO:TX:a:t=|	!	!	!	!	!	!	!	!	!	!
.	.	.	.	.	.	.	16ff\JJ	.	.	.	.	.	.	.	.	.	.
=5	=5	=5	=5	=5	=5	=5	=5	=5	=5	=5	=5	=5	=5	=5	=5	=5	=5
!	!	!	!	!	!LO:TX:a:t=P:problem:p=p: :global	!	!	!	!	!	!	!	!	!	!	!	!
!	!	!	!	!	!	!	!	!	!LO:N:vis=00	!	!LO:N:vis=00	!	!LO:N:vis=00	!	!LO:N:vis=00	!	!
4F\	.	p	4F\	p	8.a/L	p	8.cc\L	.	0r	.	0r	.	0r	.	0r	.	.
.	.	.	.	.	16cc/Jk	.	16ee-\Jk	p	.	.	.	.	.	.	.	.	.
4F\	.	.	4F\	.	8.b-/L	.	8.dd\L	.	.	.	.	.	.	.	.	.	.
.	.	.	.	.	16a/Jk	.	16cc\Jk	.	.	.	.	.	.	.	.	.	.
=6	=6	=6	=6	=6	=6	=6	=6	=6	=6	=6	=6	=6	=6	=6	=6	=6	=6
!	!	!	!LO:TX:a:t=P:problem:mixedbeam	!	!LO:TX:a:t=P:problem:f=f: :global	!	!	!	!	!	!	!	!	!	!	!	!
8BB-/L	.	.	8BB-/L	f	(8b-\L	f	8dd\L	.	.	.	.	.	.	.	.	.	.
!	!	!	!	!	!	!	!LO:TUP:a:problem:klamra łukowa	!	!	!	!	!	!	!	!	!	!
(>8B-\	.	f	(>8B-\	.	8dd\	.	24bb-\L	.	.	.	.	.	.	.	.	.	.
.	.	.	.	.	.	.	24aa\	.	.	.	.	.	.	.	.	.	.
.	.	.	.	.	.	.	24gg\JJ	.	.	.	.	.	.	.	.	.	.
!	!	!	!	!	!	!	!LO:TX:a:t=|	!	!	!	!	!	!	!	!	!	!
8A\	.	.	8A\	.	8cc\	.	16ff\LL	.	.	.	.	.	.	.	.	.	.
!	!	!	!	!	!	!	!LO:TX:a:t=|	!	!	!	!	!	!	!	!	!	!
.	.	.	.	.	.	.	16ff\	.	.	.	.	.	.	.	.	.	.
!	!	!	!	!	!	!	!LO:TX:a:t=|	!	!	!	!	!	!	!	!	!	!
8B-\J)	.	.	8B-\J)	.	8dd\J)	.	16ff\	.	.	.	.	.	.	.	.	.	.
!	!	!	!	!	!	!	!LO:TX:a:t=|	!	!	!	!	!	!	!	!	!	!
.	.	.	.	.	.	.	16ff\JJ	.	.	.	.	.	.	.	.	.	.
=7	=7	=7	=7	=7	=7	=7	=7	=7	=7	=7	=7	=7	=7	=7	=7	=7	=7
4F\	.	p	4F\	p	8.a/L	p	8.cc\L	.	.	.	.	.	.	.	.	.	.
.	.	.	.	.	16cc/Jk	.	16ee-\Jk	p	.	.	.	.	.	.	.	.	.
4F\	.	.	4F\	.	8.b-/L	.	8.dd\L	.	.	.	.	.	.	.	.	.	.
.	.	.	.	.	16a/Jk	.	16cc\Jk	.	.	.	.	.	.	.	.	.	.
!	!	!	!	!	!	!	!LO:LB:g=original	!	!	!	!	!	!	!	!	!	!
=8	=8	=8	=8	=8	=8	=8	=8	=8	=8	=8	=8	=8	=8	=8	=8	=8	=8
!LO:TX:a:t=P:problem:f=f.	!	!	!	!	!LO:TX:a:t=P:problem:mixedbeam	!LO:TUP:a:problem:klamra łukowa	!	!	!	!	!	!	!	!	!	!	!
8r	.	f	8r	f	8b-\L	.	24dd\LL	f	.	.	.	.	.	.	.	.	.
.	.	.	.	.	.	.	24cc\	.	.	.	.	.	.	.	.	.	.
.	.	.	.	.	.	.	24b-\JJ	.	.	.	.	.	.	.	.	.	.
8B-\	.	.	8B-\	.	8d/J	.	8b-\	.	.	.	.	.	.	.	.	.	.
4BB-/	.	.	4BB-/	.	8r	.	8r	.	.	.	.	.	.	.	.	.	.
.	.	.	.	.	8dd\	.	8ff\	.	.	.	.	.	.	.	.	.	.
=9	=9	=9	=9	=9	=9	=9	=9	=9	=9	=9	=9	=9	=9	=9	=9	=9	=9
!	!	!	!	!	!	!	!	!	!LO:N:vis=00	!	!LO:N:vis=00	!	!LO:N:vis=00	!	!LO:N:vis=00	!	!
8r	.	.	8r	.	8.dd\L	.	8.ff\L	.	0r	.	0r	.	0r	.	0r	.	.
(8BBn/L	.	.	(8BBn/L	.	.	.	.	.	.	.	.	.	.	.	.	.	.
.	.	.	.	.	16ff\Jk	.	16aa-X\Jk	.	.	.	.	.	.	.	.	.	.
!	!	!	!	!	!LO:TX:a:t=P:problem:mixedbeam	!	!LO:TX:a:t=P:problem:mixedbeam	!	!	!	!	!	!	!	!	!	!
8C/	.	.	8C/	.	8ee-\L	.	8.gg\L	.	.	.	.	.	.	.	.	.	.
8D/J)	.	.	8D/J)	.	8G/J	.	.	.	.	.	.	.	.	.	.	.	.
.	.	.	.	.	.	.	16Bn/Jk	.	.	.	.	.	.	.	.	.	.
!	!	!	!LO:LB:g=original	!	!	!	!	!	!	!	!	!	!	!	!	!	!
=10	=10	=10	=10	=10	=10	=10	=10	=10	=10	=10	=10	=10	=10	=10	=10	=10	=10
!	!	!	!	!	!LO:TX:a:t=P:problem: ten takt niepotrzebnie powtarza się po sobie w źródle ale jest wykreślony	!	!	!	!	!	!	!	!	!	!	!	!
(8E-\L	.	.	(8E-\L	.	4.G/	f	(8c/L	.	.	.	.	.	.	.	.	.	.
8F\	.	.	8F\	f	.	.	8d/	.	.	.	.	.	.	.	.	.	.
8G\J)	.	.	8G\J)	.	.	.	8e-/J)	.	.	.	.	.	.	.	.	.	.
8r	.	.	8r	.	8cc\	.	8ee-\	.	.	.	.	.	.	.	.	.	.
!LO:LB:g=original	!	!	!	!	!LO:LB:g=original	!	!	!	!	!	!	!	!	!	!	!	!
=11	=11	=11	=11	=11	=11	=11	=11	=11	=11	=11	=11	=11	=11	=11	=11	=11	=11
8r	.	.	8r	p	8.cc\L	p	8.ee-\L	.	.	.	.	.	.	.	.	.	.
!LO:TX:a:t=P:problem:p=p.	!	!	!	!	!	!	!	!	!	!	!	!	!	!	!	!	!
(8AA/L	.	p	(8AA/L	.	.	.	.	.	.	.	.	.	.	.	.	.	.
.	.	.	.	.	16ee-\Jk	.	16gg\Jk	.	.	.	.	.	.	.	.	.	.
!	!	!	!	!	!LO:TX:a:t=P:problem:mixedbeam	!	!LO:TX:a:t=P:problem:mixedbeam	!	!	!	!	!	!	!	!	!	!
8BB-/	.	.	8BB-/	.	8dd\L	f	8.ff\L	.	.	.	.	.	.	.	.	.	.
8C/J)	.	.	8C/J)	.	8f/J	.	.	.	.	.	.	.	.	.	.	.	.
.	.	.	.	.	.	.	16A/Jk	f	.	.	.	.	.	.	.	.	.
=12	=12	=12	=12	=12	=12	=12	=12	=12	=12	=12	=12	=12	=12	=12	=12	=12	=12
(8E-\L	.	.	(8E-\L	.	2f/	.	(8B-/L	.	.	.	.	.	.	.	.	.	.
8F\	.	f	8F\	f	.	.	8c/	.	.	.	.	.	.	.	.	.	.
8G\J)	.	.	8G\J)	.	.	.	8d/J)	.	.	.	.	.	.	.	.	.	.
8r	.	.	8r	.	.	.	8dd\	p	.	.	.	.	.	.	.	.	.
=13	=13	=13	=13	=13	=13	=13	=13	=13	=13	=13	=13	=13	=13	=13	=13	=13	=13
!	!	!	!	!	!	!	!	!	!LO:N:vis=00	!	!LO:N:vis=00	!	!LO:N:vis=00	!	!LO:N:vis=00	!	!
4D/	.	p	4D/	p	8.b-\L	.	8.dd\L	.	0r	.	0r	.	0r	.	0r	.	.
.	.	.	.	.	16dd\K	p	16ff\K	.	.	.	.	.	.	.	.	.	.
4D/	.	.	4D/	.	8.cc\	.	8.ee-\	.	.	.	.	.	.	.	.	.	.
.	.	.	.	.	16b-\Jk	.	16dd\Jk	.	.	.	.	.	.	.	.	.	.
=14	=14	=14	=14	=14	=14	=14	=14	=14	=14	=14	=14	=14	=14	=14	=14	=14	=14
8r	.	.	8r	f	8b-\L	.	8dd\L	.	.	.	.	.	.	.	.	.	.
16F\LL	.	f	16F\LL	.	8a\J	.	8cc\J	.	.	.	.	.	.	.	.	.	.
16E-\JJ	.	.	16E-\JJ	.	.	.	.	.	.	.	.	.	.	.	.	.	.
!LO:TX:a:t=P:problem:mixedbeam	!	!	!LO:TX:a:t=P:problem:mixedbeam	!	!	!	!	!	!	!	!	!	!	!	!	!	!
8F\L	.	.	8F\L	.	8r	.	8r	.	.	.	.	.	.	.	.	.	.
8FF/J	.	.	8FF/J	.	8a/	.	8cc\	f	.	.	.	.	.	.	.	.	.
=15	=15	=15	=15	=15	=15	=15	=15	=15	=15	=15	=15	=15	=15	=15	=15	=15	=15
8BB-/L	.	.	8BB-/L	.	8b-\	f	8dd\L	.	.	.	.	.	.	.	.	.	.
!	!	!	!	!	!	!	!LO:TUP:a:problem:klamra łukowa	!	!	!	!	!	!	!	!	!	!
8E-/	.	.	8E-/	.	4b-\	.	24bb-\L	.	.	.	.	.	.	.	.	.	.
.	.	.	.	.	.	.	24aa\	.	.	.	.	.	.	.	.	.	.
.	.	.	.	.	.	.	24gg\JJ	.	.	.	.	.	.	.	.	.	.
8D/	.	.	8D/	.	.	.	8ff\L	.	.	.	.	.	.	.	.	.	.
!	!	!	!	!	!	!	!LO:TUP:a:problem:klamra łukowa	!	!	!	!	!	!	!	!	!	!
8C/J	.	.	8C/J	.	[8b-\	.	24gg\L	.	.	.	.	.	.	.	.	.	.
.	.	.	.	.	.	.	24ff\	.	.	.	.	.	.	.	.	.	.
.	.	.	.	.	.	.	24ee-\JJ	.	.	.	.	.	.	.	.	.	.
!	!	!	!	!	!	!	!LO:LB:g=original	!	!	!	!	!	!	!	!	!	!
=16	=16	=16	=16	=16	=16	=16	=16	=16	=16	=16	=16	=16	=16	=16	=16	=16	=16
8BB-/L	.	.	8BB-/L	.	8b-\]	.	8dd\L	.	.	.	.	.	.	.	.	.	.
!	!	!	!	!	!	!	!LO:TUP:a:problem:klamra łukowa	!	!	!	!	!	!	!	!	!	!
8E-/	.	.	8E-/	.	4b-\	.	24bb-\L	.	.	.	.	.	.	.	.	.	.
.	.	.	.	.	.	.	24aa\	.	.	.	.	.	.	.	.	.	.
.	.	.	.	.	.	.	24gg\JJ	.	.	.	.	.	.	.	.	.	.
8D/	.	.	8D/	.	.	.	8ff\L	.	.	.	.	.	.	.	.	.	.
!	!	!	!	!	!	!	!LO:TUP:a:problem:klamra łukowa	!	!	!	!	!	!	!	!	!	!
8C/J	.	.	8C/J	.	8b-\	.	24gg\L	.	.	.	.	.	.	.	.	.	.
.	.	.	.	.	.	.	24ff\	.	.	.	.	.	.	.	.	.	.
.	.	.	.	.	.	.	24ee-\JJ	.	.	.	.	.	.	.	.	.	.
=17	=17	=17	=17	=17	=17	=17	=17	=17	=17	=17	=17	=17	=17	=17	=17	=17	=17
!LO:TX:a:t=P:problem:mixedbeam	!	!	!LO:TX:a:t=P:problem:mixedbeam	!	!	!	!	!	!	!	!	!	!	!	!	!	!
!	!	!	!	!	!	!	!	!	!LO:N:vis=00	!	!LO:N:vis=00	!	!LO:N:vis=0	!	!LO:N:vis=0	!	!
8BB-\L	.	.	8BB-\L	.	8b-/L	.	8dd\L	.	0r	.	0r	.	1r	.	1r	.	.
!	!	!	!	!	!LO:TUP:a:problem:klamra łukowa	!	!LO:TUP:a:problem:klamra łukowa	!	!	!	!	!	!	!	!	!	!
8E-\	.	.	8E-\	.	24g/L	.	24ee-\L	.	.	.	.	.	.	.	.	.	.
.	.	.	.	.	24f/	.	24dd\	.	.	.	.	.	.	.	.	.	.
.	.	.	.	.	24e-/JJ	.	24cc\JJ	.	.	.	.	.	.	.	.	.	.
8F\	.	.	8F\	.	8d/L	.	8b-/L	.	.	.	.	.	.	.	.	.	.
8FF/J	.	.	8FF/J	.	8c/J	.	8a/J	.	.	.	.	.	.	.	.	.	.
=18	=18	=18	=18	=18	=18	=18	=18	=18	=18	=18	=18	=18	=18	=18	=18	=18	=18
4BB-/	.	.	4BB-/	.	8d/L	.	8b-/L	.	.	.	.	.	.	.	.	.	.
.	.	.	.	.	8f/	.	8f/	.	.	.	.	.	.	.	.	.	.
4r	.	.	4r	.	8B-/J	.	8B-/J	.	.	.	.	.	.	.	.	.	.
.	.	.	.	.	8r	.	8r	.	.	.	.	.	.	.	.	.	.
=19	=19	=19	=19	=19	=19	=19	=19	=19	=19	=19	=19	=19	=19	=19	=19	=19	=19
!LO:TX:a:t=P:problem:p=p.	!	!	!	!	!	!	!	!	!	!	!	!	!	!	!	!	!
4BB-/	.	p	4BB-/	p	4.d/	p	8.ff\L	p	.	.	.	.	4r	.	4ff\	Sal-	.
.	.	.	.	.	.	.	16bb-\Jk	.	.	.	.	.	.	.	.	.	.
4BB-/	.	.	4BB-/	.	.	.	8.b-\L	.	.	.	.	.	8r	.	8b-\	-ve	.
.	.	.	.	.	8B-/	.	.	.	.	.	.	.	8b-\	Re-	8dd\	Re-	.
.	.	.	.	.	.	.	16dd\Jk	.	.	.	.	.	.	.	.	.	.
!	!	!	!LO:LB:g=original	!	!	!	!	!	!	!	!	!	!	!	!	!	!
=20	=20	=20	=20	=20	=20	=20	=20	=20	=20	=20	=20	=20	=20	=20	=20	=20	=20
8r	.	.	8r	f	8B-/L	.	8dd\L	.	.	.	.	.	8b-\	-gi-	8dd\	-gi-	.
16F\LL	.	f	16F\LL	.	8A/J	.	8cc\J	.	.	.	.	.	8a\	-na	8cc\	-na	.
16E-\JJ	.	.	16E-\JJ	.	.	.	.	.	.	.	.	.	.	.	.	.	.
!LO:TX:a:t=P:problem:mixedbeam	!	!	!LO:TX:a:t=P:problem:mixedbeam	!	!	!	!	!	!	!	!	!	!	!	!	!	!
8F\L	.	.	8F\L	.	16.f/LL	.	16.f/LL	f	.	.	.	.	4r	.	4r	.	.
.	.	.	.	.	32en/K	.	32g/K	.	.	.	.	.	.	.	.	.	.
8FF/J	.	.	8FF/J	.	16.f/	.	16.a/	.	.	.	.	.	.	.	.	.	.
.	.	.	.	.	32f/JJk	.	32b-/JJk	.	.	.	.	.	.	.	.	.	.
!	!	!	!	!	!LO:LB:g=original	!	!	!	!	!	!	!	!	!	!	!	!
=21	=21	=21	=21	=21	=21	=21	=21	=21	=21	=21	=21	=21	=21	=21	=21	=21	=21
!LO:TX:a:t=P:problem:p=p.	!	!	!	!	!	!	!	!	!	!	!	!	!	!	!	!	!
4F\	.	p	4F\	p	8.a/L	.	8.cc\L	p	2r	.	2r	.	8.a\L	Sal-	8.cc\L	Sal-	.
.	.	.	.	.	16cc/K	.	16ee-\K	.	.	.	.	.	16cc\K	.	16ee-\K	.	.
4F\	.	.	4F\	.	8.b-/	.	8.dd\	.	.	.	.	.	8.b-\	.	8.dd\	.	.
.	.	.	.	.	16a/Jk	.	16cc\Jk	.	.	.	.	.	16a\Jk	.	16cc\Jk	.	.
=22	=22	=22	=22	=22	=22	=22	=22	=22	=22	=22	=22	=22	=22	=22	=22	=22	=22
4BB-/	.	.	4BB-/	.	4b-/	.	8dd\L	f	8r	.	8r	.	8b-\	-ve	8dd\	-ve	.
.	.	.	.	.	.	.	24bb-\L	.	8B-\	Re-	8d\	Re-	8r	.	8r	.	.
.	.	.	.	.	.	.	24aa\	.	.	.	.	.	.	.	.	.	.
.	.	.	.	.	.	.	24gg\JJ	.	.	.	.	.	.	.	.	.	.
!	!	!	!	!	!	!	!LO:TX:a:t=|	!	!	!	!	!	!	!	!	!	!
4r	.	.	4r	.	4r	.	16ff\LL	.	8A\	-gi-	8c\	-gi-	4r	.	4r	.	.
!	!	!	!	!	!	!	!LO:TX:a:t=|	!	!	!	!	!	!	!	!	!	!
.	.	.	.	.	.	.	16ff\	.	.	.	.	.	.	.	.	.	.
!	!	!	!	!	!	!	!LO:TX:a:t=|	!	!	!	!	!	!	!	!	!	!
.	.	.	.	.	.	.	16ff\	.	8B-\	-na	8d\	-na	.	.	.	.	.
!	!	!	!	!	!	!	!LO:TX:a:t=|	!	!	!	!	!	!	!	!	!	!
.	.	.	.	.	.	.	16ff\JJ	.	.	.	.	.	.	.	.	.	.
=23	=23	=23	=23	=23	=23	=23	=23	=23	=23	=23	=23	=23	=23	=23	=23	=23	=23
*	*	*	*	*	*	*	*	*	*	*	*	*	*	*ij	*	*ij	*
4F\	.	p	4F\	.	8.a/L	.	8.cc\L	p	2r	.	2r	.	8.a\L	Sal-	8.cc\L	Sal-	.
.	.	.	.	.	16cc/Jk	.	16ee-\K	.	.	.	.	.	16cc\K	.	16ee-\K	.	.
4F\	.	.	4F\	.	8.b-/L	.	8.dd\	.	.	.	.	.	8.b-\	.	8.dd\	.	.
.	.	.	.	.	16a/Jk	.	16cc\Jk	.	.	.	.	.	16a\Jk	.	16cc\Jk	.	.
!	!	!	!	!	!	!	!LO:LB:g=original	!	!	!	!	!	!	!	!	!	!
=24	=24	=24	=24	=24	=24	=24	=24	=24	=24	=24	=24	=24	=24	=24	=24	=24	=24
4BB-/	.	.	4BB-/	.	4b-/	.	8dd\L	.	8r	.	8r	.	8b-\	-ve	8dd\	-ve	.
!	!	!	!	!	!	!	!LO:TX:a:t=P:problem:f=f	!	!	!	!	!	!	!	!	!	!
*	*	*	*	*	*	*	*	*	*	*ij	*	*ij	*	*	*	*	*
!	!	!	!	!	!	!	!LO:TUP:a:problem:klamra łukowa	!	!	!	!	!	!	!	!	!	!
.	.	.	.	.	.	.	24bb-\L	f	8B-\	Re-	8d\	Re-	8r	.	8r	.	.
.	.	.	.	.	.	.	24aa\	.	.	.	.	.	.	.	.	.	.
.	.	.	.	.	.	.	24gg\JJ	.	.	.	.	.	.	.	.	.	.
!	!	!	!	!	!	!	!LO:TX:a:t=|	!	!	!	!	!	!	!	!	!	!
4r	.	.	4r	.	4r	.	16ff\LL	.	8A\	-gi-	8c\	-gi-	4r	.	4r	.	.
!	!	!	!	!	!	!	!LO:TX:a:t=|	!	!	!	!	!	!	!	!	!	!
.	.	.	.	.	.	.	16ff\	.	.	.	.	.	.	.	.	.	.
!	!	!	!	!	!	!	!LO:TX:a:t=|	!	!	!	!	!	!	!	!	!	!
.	.	.	.	.	.	.	16ff\	.	8B-\	-na	8d\	-na	.	.	.	.	.
!	!	!	!	!	!	!	!LO:TX:a:t=|	!	!	!	!	!	!	!	!	!	!
.	.	.	.	.	.	.	16ff\JJ	.	.	.	.	.	.	.	.	.	.
*	*	*	*	*	*	*	*	*	*	*Xij	*	*Xij	*	*Xij	*	*Xij	*
!	!	!	!	!	!	!	!	!	!	!	!	!	!LO:LB:g=original	!	!LO:LB:g=original	!	!
=25	=25	=25	=25	=25	=25	=25	=25	=25	=25	=25	=25	=25	=25	=25	=25	=25	=25
!	!	!	!	!	!	!	!	!	!LO:TX:a:t=2	!	!LO:TX:a:t=2	!	!LO:TX:a:t=6	!	!	!	!
!	!	!	!	!	!	!	!	!	!LO:N:vis=0	!	!LO:N:vis=0	!	!LO:N:vis=00	!	!	!	!
4F\	.	.	4F\	.	8.a/L	.	(8.cc\L	.	1r	.	1r	.	0r	.	8.cc\L	Sal-	.
!	!	!	!	!	!	!	!LO:TX:a:t=P:problem:p=p.	!	!	!	!	!	!	!	!	!	!
.	.	.	.	.	32b-/LL	.	32dd\LL	p	.	.	.	.	.	.	(32dd\LL	.	.
.	.	.	.	.	32cc/JJJ	.	32ee-\JJJ)	.	.	.	.	.	.	.	32ee-\JJJ)	.	.
4F\	.	.	4F\	.	8b-/L	.	8dd\L	.	.	.	.	.	.	.	8dd\	-ve	.
.	.	.	.	.	8a/J	.	8cc\J	.	.	.	.	.	.	.	8cc\	Re-	.
=26	=26	=26	=26	=26	=26	=26	=26	=26	=26	=26	=26	=26	=26	=26	=26	=26	=26
!	!	!	!	!	!LO:TX:a:t=P:problem:mixedbeam	!	!	!	!	!	!	!	!	!	!	!	!
4BB-/	.	f	4BB-/	f	8b-\L	.	16.dd\LL	.	.	.	.	.	.	.	(16dd\LL	gi-	.
.	.	.	.	.	.	.	.	.	.	.	.	.	.	.	16cc\JJ)	.	.
.	.	.	.	.	.	.	32cc\JK	.	.	.	.	.	.	.	.	.	.
.	.	.	.	.	8d/J	.	8b-\J	f	.	.	.	.	.	.	8b-\	-na	.
16.F\LL	.	.	16.F\LL	.	16.b-/LL	.	16.b-\LL	.	.	.	.	.	.	.	4r	.	.
32E-\K	.	.	32E-\K	.	32a/K	.	32cc\K	.	.	.	.	.	.	.	.	.	.
16.D\	.	.	16.D\	.	16.b-/	.	16.dd\	.	.	.	.	.	.	.	.	.	.
32C\JJk	.	.	32C\JJk	.	32cc/JJk	.	32ee-\JJk	.	.	.	.	.	.	.	.	.	.
=27	=27	=27	=27	=27	=27	=27	=27	=27	=27	=27	=27	=27	=27	=27	=27	=27	=27
!	!	!	!	!	!	!	!LO:TX:a:t=P:problem:p=p	!	!	!	!	!	!	!	!	!	!
4BB-/	.	.	4BB-/	.	4.dd\	.	8.ff\L	p	4r	.	4r	.	.	.	4ff\	Ma-	.
.	.	.	.	.	.	.	16bb-\Jk	.	.	.	.	.	.	.	.	.	.
4r	.	.	4r	.	.	.	8.b-\L	.	8r	.	8r	.	.	.	4b-\	-ter	.
.	.	.	.	.	8B-/	.	.	.	8B-\	mi-	8d\	Ma-	.	.	.	.	.
.	.	.	.	.	.	.	16dd\Jk	.	.	.	.	.	.	.	.	.	.
!	!	!	!	!	!	!	!	!	!	!	!LO:LB:g=original	!	!	!	!	!	!
=28	=28	=28	=28	=28	=28	=28	=28	=28	=28	=28	=28	=28	=28	=28	=28	=28	=28
8r	.	.	8r	.	4A/	.	4cc\	.	8A\	-se-	8c\	.	.	.	2r	.	.
8AA/L	6	.	8AA/L	.	.	.	.	.	(16G\LL	-ri-	(16B-\LL	.	.	.	.	.	.
.	.	.	.	.	.	.	.	.	16F\JJ)	.	16A\JJ)	.	.	.	.	.	.
8BB-/	.	.	8BB-/	.	4r	.	4r	.	8.G\	-cor-	8.B-\	.	.	.	.	.	.
8C/J	n	.	8C/J	.	.	.	.	.	.	.	.	.	.	.	.	.	.
.	.	.	.	.	.	.	.	.	16G\	-di-	16B-\	.	.	.	.	.	.
!	!	!	!LO:LB:g=original	!	!	!	!	!	!LO:LB:g=original	!	!	!	!	!	!	!	!
=29	=29	=29	=29	=29	=29	=29	=29	=29	=29	=29	=29	=29	=29	=29	=29	=29	=29
*	*	*	*	*	*	*	*	*	*	*	*	*	*	*	*	*ij	*
!	!	!	!	!	!	!	!	!	!	!	!	!	!LO:N:vis=0	!	!	!	!
4FF/	.	.	4FF/	.	4.d/	.	8.ff\L	.	4F\	-ae	4A\	-ter	1r	.	4ff\	Ma-	.
.	.	.	.	.	.	.	16bb-\Jk	.	.	.	.	.	.	.	.	.	.
4r	.	.	4r	.	.	.	8.b-\L	.	8r	.	8r	.	.	.	4b-\	-ter	.
.	.	.	.	.	8B-/	.	.	.	8B-\	mi-	8d\	Mi-	.	.	.	.	.
.	.	.	.	.	.	.	16dd\Jk	.	.	.	.	.	.	.	.	.	.
*	*	*	*	*	*	*	*	*	*	*	*	*	*	*	*	*Xij	*
!LO:LB:g=original	!	!	!	!	!	!	!	!	!	!	!	!	!	!	!	!	!
=30	=30	=30	=30	=30	=30	=30	=30	=30	=30	=30	=30	=30	=30	=30	=30	=30	=30
8r	.	.	8r	.	4A/	.	4cc\	.	8A\	-se-	8c\	-se-	.	.	2r	.	.
8AA/L	6	.	8AA/L	.	.	.	.	.	(16G\LL	-ri-	(16B-\LL	-ri-	.	.	.	.	.
.	.	.	.	.	.	.	.	.	16F\JJ)	.	16A\JJ)	.	.	.	.	.	.
8BB-/	.	.	8BB-/	.	4r	.	4r	.	8.G\	-cor-	8.B-\	-cor-	.	.	.	.	.
8C/J	n	.	8C/J	.	.	.	.	.	.	.	.	.	.	.	.	.	.
.	.	.	.	.	.	.	.	.	16G\	-di-	16B-\	-di-	.	.	.	.	.
=31	=31	=31	=31	=31	=31	=31	=31	=31	=31	=31	=31	=31	=31	=31	=31	=31	=31
4FF/	.	.	4FF/	p	8r	.	8r	.	4F\	-ae	4A\	-ae	8r	.	8r	.	.
.	.	.	.	.	(8A/L	.	(8cc\L	.	.	.	.	.	8a\	vi-	8cc\	Vi-	.
4F\	.	p	4F\	.	8B-/	.	8dd\	.	4r	.	4r	.	8b-\	-ta	8dd\	-ta	.
.	.	.	.	.	8c/J)	.	8ee-\J)	.	.	.	.	.	8cc\	dul-	8ee-\	dul-	.
=32	=32	=32	=32	=32	=32	=32	=32	=32	=32	=32	=32	=32	=32	=32	=32	=32	=32
!	!	!	!	!	!	!	!	!	!LO:TX:a:t=3	!	!LO:TX:a:t=3	!	!	!	!	!	!
!	!	!	!	!	!	!	!	!	!LO:N:vis=0	!	!LO:N:vis=0	!	!	!	!	!	!
8F\L	4	.	8F\L	.	8c/	.	8ee-\L	.	1r	.	1r	.	8cc\	-ce-	8ee-\	-ce-	.
8F\	6	.	8F\	.	4B-/	.	8dd\J	.	.	.	.	.	8b-\	-do	8dd\	-do	.
!	!	!	!	!	!	!	!LO:TX:a:t=|	!	!	!	!	!	!	!	!	!	!
8F\	.	.	8F\	.	.	.	16dd\LL	.	.	.	.	.	8r	.	8r	.	.
!	!	!	!	!	!	!	!LO:TX:a:t=|	!	!	!	!	!	!	!	!	!	!
.	.	.	.	.	.	.	16dd\	.	.	.	.	.	.	.	.	.	.
!	!	!	!	!	!	!	!LO:TX:a:t=|	!	!	!	!	!	!	!	!	!	!
8F\J	.	.	8F\J	.	8B-/	.	16dd\	.	.	.	.	.	8b-\	et	8dd\	et	.
!	!	!	!	!	!	!	!LO:TX:a:t=|	!	!	!	!	!	!	!	!	!	!
.	.	.	.	.	.	.	16dd\JJ	.	.	.	.	.	.	.	.	.	.
!LO:LB:g=original	!	!	!	!	!LO:LB:g=original	!	!LO:LB:g=original	!	!	!	!	!	!	!	!LO:LB:g=original	!	!
=33	=33	=33	=33	=33	=33	=33	=33	=33	=33	=33	=33	=33	=33	=33	=33	=33	=33
4G\	n	.	4G\	.	8r	.	4dd\	.	.	.	.	.	4bn\	Spes	8dd\	Spes	.
.	.	.	.	.	(8Bn/L	.	.	.	.	.	.	.	.	.	8r	.	.
4G\	.	.	4G\	.	8c/	.	(8een\L	.	.	.	.	.	8cc\	no-	8een\	no-	.
.	.	.	.	.	8d/J)	.	8ff\J)	.	.	.	.	.	8dd\	-stra	8ff\	-stra	.
=34	=34	=34	=34	=34	=34	=34	=34	=34	=34	=34	=34	=34	=34	=34	=34	=34	=34
8G\L	4	.	8G\L	.	8d/L	.	8ff\L	.	2r	.	2r	.	8dd\	Sal-	8ff\	Sal-	.
8G\	6	.	8G\	.	8c/J	.	8een\J	.	.	.	.	.	8cc\	-ve	8een\	-ve	.
!	!	!	!	!	!	!	!LO:TX:a:t=|	!	!	!	!	!	!	!	!	!	!
8G\	.	.	8G\	.	4c/	.	16ee\LL	.	.	.	.	.	4r	.	4r	.	.
!	!	!	!	!	!	!	!LO:TX:a:t=|	!	!	!	!	!	!	!	!	!	!
.	.	.	.	.	.	.	16ee\	.	.	.	.	.	.	.	.	.	.
!	!	!	!	!	!	!	!LO:TX:a:t=|	!	!	!	!	!	!	!	!	!	!
8C\J	n	.	8C\J	.	.	.	16ee\	.	.	.	.	.	.	.	.	.	.
!	!	!	!	!	!	!	!LO:TX:a:t=|	!	!	!	!	!	!	!	!	!	!
.	.	.	.	.	.	.	16ee\JJ	.	.	.	.	.	.	.	.	.	.
=35	=35	=35	=35	=35	=35	=35	=35	=35	=35	=35	=35	=35	=35	=35	=35	=35	=35
*	*	*	*	*	*	*	*	*	*2\right	*	*	*	*	*	*	*	*
8F\L	.	f	8F\L	f	4dd\	f	4ff\	.	2F\	ad	2F/	ad	4dd\	ad	4ff\	ad	.
8F\	.	.	8F\	.	.	.	.	.	.	.	.	.	.	.	.	.	.
8F\	.	.	8F\	.	8cc\L	.	(8een\L	.	.	.	.	.	8cc\	te	8een\	te	.
8F\J	.	.	8F\J	.	8b-\J	.	8dd\J)	.	.	.	.	.	8b-\	cla-	8dd\	cla-	.
=36	=36	=36	=36	=36	=36	=36	=36	=36	=36	=36	=36	=36	=36	=36	=36	=36	=36
8F\L	.	.	8F\L	.	8.a/L	.	(8.cc\L	.	2F\	te	2F/	te	8.a\L	-ma-	8.cc\L	-ma-	.
8F\	.	.	8F\	.	.	.	.	.	.	.	.	.	.	.	.	.	.
.	.	.	.	.	16b-/Jk	.	16dd\Jk)	.	.	.	.	.	16b-\Jk	.	16dd\Jk	.	.
8F\	.	.	8F\	.	4a/	.	8cc\L	.	.	.	.	.	4a\	-mus	4cc\	-mus	.
8F\J	.	.	8F\J	.	.	.	16dd\L	.	.	.	.	.	.	.	.	.	.
.	.	.	.	.	.	.	16cc\JJ	.	.	.	.	.	.	.	.	.	.
!	!	!	!	!	!	!	!	!	!	!	!	!	!LO:LB:g=original	!	!	!	!
=37	=37	=37	=37	=37	=37	=37	=37	=37	=37	=37	=37	=37	=37	=37	=37	=37	=37
8F\L	.	.	8F\L	.	8A/L	.	8cc\L	.	2F\	Cla-	2F/	cla-	8a\	e-	8cc\	e-	.
8F\	.	.	8F\	.	(16B-/L	.	(16dd\L	.	.	.	.	.	16b-\	-xu-	16dd\	-xu-	.
.	.	.	.	.	16c/JJ	.	(16een\JJ)	.	.	.	.	.	16cc\	-les	16een\	-les	.
8F\	.	.	8F\	.	8d/L)	.	8ff\L	.	.	.	.	.	8dd\	fi-	8ff\	fi-	.
8F\J	.	.	8F\J	.	16c/L	.	16ee\L)	.	.	.	.	.	16cc\	-li-	16ee\	-li-	.
.	.	.	.	.	16B-/JJ	.	16dd\JJ	.	.	.	.	.	16b-\	-i	16dd\	-i	.
!	!	!	!	!	!	!	!	!	!	!	!LO:LB:g=original	!	!	!	!	!	!
=38	=38	=38	=38	=38	=38	=38	=38	=38	=38	=38	=38	=38	=38	=38	=38	=38	=38
8F\L	.	.	8F\L	.	8.A/L	.	8.cc\L	.	2F\	-ma-	2F/	-ma-	8.a\L	Ev-	8.cc\L	Ev-	.
8F\	.	.	8F\	.	.	.	.	.	.	.	.	.	.	.	.	.	.
.	.	.	.	.	16B-/Jk	.	16dd\Jk	.	.	.	.	.	16b-\Jk	.	16dd\Jk	.	.
8F\	.	.	8F\	.	4A/	.	16cc\LL	.	.	.	.	.	4a\	-vae	4cc\	-ae	.
.	.	.	.	.	.	.	16cc\	.	.	.	.	.	.	.	.	.	.
8F\J	.	.	8F\J	.	.	.	16cc\	.	.	.	.	.	.	.	.	.	.
.	.	.	.	.	.	.	16cc\JJ	.	.	.	.	.	.	.	.	.	.
!	!	!	!	!	!	!	!	!	!	!	!	!	!	!	!LO:LB:g=original	!	!
=39	=39	=39	=39	=39	=39	=39	=39	=39	=39	=39	=39	=39	=39	=39	=39	=39	=39
8F\L	.	.	8F\L	.	8a\L	.	(8cc\L	.	2F\	-mus	2F/	-mus	8a\	ad	8cc\	ad	.
8F\	.	.	8F\	.	(8dd\	.	8ff\J	.	.	.	.	.	8dd\	te	8ff\	te	.
8F\	.	.	8F\	.	8cc\	.	8een\L	.	.	.	.	.	8cc\	Su-	8een\	Su-	.
8F\J	.	.	8F\J	.	8b-\J)	.	8dd\J)	.	.	.	.	.	8b-\	-spi-	8dd\	-spi-	.
!	!	!	!LO:LB:g=original	!	!	!	!	!	!	!	!	!	!	!	!	!	!
=40	=40	=40	=40	=40	=40	=40	=40	=40	=40	=40	=40	=40	=40	=40	=40	=40	=40
8F\L	.	.	8F\L	.	8a/L	.	(8cc\L	.	4F\	E-	4F/	e-	8.a\L	-ra-	(8cc\L	-ra-	.
8F\	.	.	8F\	.	8a/J	.	8dd\J)	.	.	.	.	.	.	.	8dd\J)	.	.
.	.	.	.	.	.	.	.	.	.	.	.	.	16b-\Jk	.	.	.	.
8F\	.	.	8F\	.	16a/LL	.	16cc~\LL	.	4F\	-xu-	4F/	-xu-	4a\	-mus	4cc\	-mus	.
.	.	.	.	.	16a/	.	16cc~\	.	.	.	.	.	.	.	.	.	.
8F\J	.	.	8F\J	.	16a/	.	16cc~\	.	.	.	.	.	.	.	.	.	.
.	.	.	.	.	16a/JJ	.	16cc~\JJ	.	.	.	.	.	.	.	.	.	.
!	!	!	!	!	!	!	!	!	!LO:LB:g=original	!	!	!	!	!	!	!	!
=41	=41	=41	=41	=41	=41	=41	=41	=41	=41	=41	=41	=41	=41	=41	=41	=41	=41
8r	.	.	8r	.	8a/	.	8cc\	.	2F\	-les	2F/	-les	4r	.	4r	.	.
8F\L	.	.	8F\L	.	8r	.	8r	.	.	.	.	.	.	.	.	.	.
8A\	6	.	8A\	.	8.a/L	p	8cc\L	p	.	.	.	.	4cc\	ge-	4ee-X\	ge-	.
8F\J	.	.	8F\J	.	.	.	8ee-X\J	.	.	.	.	.	.	.	.	.	.
.	.	.	.	.	16cc/Jk	.	.	.	.	.	.	.	.	.	.	.	.
!	!	!	!	!	!	!	!LO:LB:g=original	!	!	!	!	!	!	!	!	!	!
=42	=42	=42	=42	=42	=42	=42	=42	=42	=42	=42	=42	=42	=42	=42	=42	=42	=42
8r	.	.	8r	.	4b-\	f	4dd\	f	4r	.	4r	.	4b-\	-men-	4dd\	-men-	.
!LO:TX:a:t=P:problem:mixedbeam	!	!	!LO:TX:a:t=P:problem:mixedbeam	!	!	!	!	!	!	!	!	!	!	!	!	!	!
8B-\L	#	.	8B-\L	.	.	.	.	.	.	.	.	.	.	.	.	.	.
8d\	.	.	8d\	.	8.A/L	.	8.f#X/L	.	4F#X\	ge-	4A\	ge-	4a\	-tes	4dd\	-tes	.
8D/J	.	.	8D/J	.	.	.	.	.	.	.	.	.	.	.	.	.	.
.	.	.	.	.	16c/Jk	.	16a/Jk	.	.	.	.	.	.	.	.	.	.
!	!	!	!	!	!LO:LB:g=original	!	!	!	!	!	!	!	!	!	!	!	!
=43	=43	=43	=43	=43	=43	=43	=43	=43	=43	=43	=43	=43	=43	=43	=43	=43	=43
*	*	*	*	*	*	*	*	*	*	*	*	*	*	*	*	*ij	*
8r	.	.	8r	.	4B-/	.	4g/	.	4G\	-men-	4B-\	-men-	4r	.	4r	.	.
8G\L	.	.	8G\L	.	.	.	.	.	.	.	.	.	.	.	.	.	.
8Bn\	.	.	8Bn\	.	8.bn\L	p	8.dd\L	.	4GG/	-tes	4Bn\	-tes	4dd\	ge-	4ff\	ge-	.
8G\J	6	.	8G\J	.	.	.	.	.	.	.	.	.	.	.	.	.	.
.	.	.	.	.	16dd\Jk	.	16ff\Jk	.	.	.	.	.	.	.	.	.	.
!LO:LB:g=original	!	!	!	!	!	!	!	!	!	!	!	!	!LO:LB:g=original	!	!	!	!
=44	=44	=44	=44	=44	=44	=44	=44	=44	=44	=44	=44	=44	=44	=44	=44	=44	=44
8r	.	.	8r	.	4cc\	f	4ee-\	.	4r	.	4r	.	4cc\	-men-	4een\	-men-	.
!	!	!	!LO:TX:a:t=P:problem:mixedbeam	!	!	!	!	!	!	!	!	!	!	!	!	!	!
8C/L	.	.	8C\L	.	.	.	.	.	.	.	.	.	.	.	.	.	.
*	*	*	*	*	*	*	*	*	*	*ij	*	*ij	*	*	*	*	*
8En/	.	.	8En\	.	8.Bn/L	.	8.g#X/L	f	4G\	ge-	4Bn\	et	4bn\	-tes	4ee\	-tes	.
8EE-/J	.	.	8EE-/J	.	.	.	.	.	.	.	.	.	.	.	.	.	.
.	.	.	.	.	16d/Jk	.	16b-/Jk	.	.	.	.	.	.	.	.	.	.
=45	=45	=45	=45	=45	=45	=45	=45	=45	=45	=45	=45	=45	=45	=45	=45	=45	=45
8r	.	.	8r	.	4c/	.	4a/	.	4A\	-men-	4c\	flen-	4r	.	4r	.	.
8A\L	n6	.	8A\L	.	.	.	.	.	.	.	.	.	.	.	.	.	.
8c\	.	.	8c\	.	8.cc\L	.	8.een\L	.	4AA/	-tes	4c\	-tes	4een\	ge-	4gg\	ge-	.
8A\J	.	.	8A\J	.	.	.	.	.	.	.	.	.	.	.	.	.	.
.	.	.	.	.	16een\Jk	p	16gg\Jk	.	.	.	.	.	.	.	.	.	.
*	*	*	*	*	*	*	*	*	*	*Xij	*	*	*	*	*	*	*
=46	=46	=46	=46	=46	=46	=46	=46	=46	=46	=46	=46	=46	=46	=46	=46	=46	=46
8r	.	.	8r	.	4dd\	f	4ff\	.	4r	.	4r	.	4dd\	-men-	4ff\	-men-	.
!LO:TX:a:t=P:problem:mixedbeam	!	!	!LO:TX:a:t=P:problem:mixedbeam	!	!	!	!	!	!	!	!	!	!	!	!	!	!
8D\L	.	.	8D\L	.	.	.	.	.	.	.	.	.	.	.	.	.	.
8F\	.	.	8F\	.	8.c/L	.	8.a/L	f	4A\	et	4c\	et	4cc\	-tes	4ff\	-tes	.
8FF/J	.	.	8FF/J	.	.	.	.	.	.	.	.	.	.	.	.	.	.
.	.	.	.	.	16en/Jk	.	16cc/Jk	.	.	.	.	.	.	.	.	.	.
*	*	*	*	*	*	*	*	*	*	*	*	*	*	*	*	*Xij	*
=47	=47	=47	=47	=47	=47	=47	=47	=47	=47	=47	=47	=47	=47	=47	=47	=47	=47
8r	.	.	8r	.	4d/	.	4b-\	.	4B-\	flen-	4d\	flen-	4r	.	4r	.	.
8B-\L	.	.	8B-\L	.	.	.	.	.	.	.	.	.	.	.	.	.	.
8d\	.	.	8d\	.	8.dd\L	p	8.ff\L	.	4BB-/	-tes	4d\	-tes	4dd\	et	4aa\	ge-	.
8B-\J	.	.	8B-\J	.	.	.	.	.	.	.	.	.	.	.	.	.	.
.	.	.	.	.	16ff\Jk	.	16aa\Jk	.	.	.	.	.	.	.	.	.	.
!	!	!	!	!	!	!	!	!	!	!	!	!	!	!	!	!LO:LB:g=original	!
=48	=48	=48	=48	=48	=48	=48	=48	=48	=48	=48	=48	=48	=48	=48	=48	=48	=48
8r	.	.	8r	.	4een\	.	4gg\	.	4r	.	4r	.	4een\	flen-	4gg\	-men-	.
!LO:TX:a:t=P:problem:mixedbeam	!	!	!LO:TX:a:t=P:problem:mixedbeam	!	!	!	!	!	!	!	!	!	!	!	!	!	!
8En\L	.	.	8En\L	.	.	.	.	.	.	.	.	.	.	.	.	.	.
*	*	*	*	*	*	*	*	*	*	*ij	*	*	*	*	*	*	*
8G\	n	.	8G\	.	8.d/L	.	8.bn\L	.	4Bn\	et	4d\	et	4dd\	-tes	4gg\	-tes	.
8GG\J	.	.	8GG/J	.	.	.	.	.	.	.	.	.	.	.	.	.	.
.	.	.	.	.	16f/Jk	.	16dd\Jk	.	.	.	.	.	.	.	.	.	.
!	!	!	!LO:LB:g=original	!	!	!	!	!	!	!	!	!	!	!	!	!	!
=49	=49	=49	=49	=49	=49	=49	=49	=49	=49	=49	=49	=49	=49	=49	=49	=49	=49
*	*	*	*	*	*^	*	*	*	*	*	*	*	*	*	*	*	*
!	!	!	!	!	!	!	!	!	!	!	!	!	!	!LO:TX:a:t=3	!	!	!	!
!	!	!	!	!	!	!	!	!	!	!	!	!	!	!LO:N:vis=0	!	!	!	!
8C/L	n	p	8C/L	p	8en/	2G/	p	4cc\	.	4c\	flen-	4en\	flen-	1r	.	4r	.	.
8C/	.	.	8C/	.	4e/	.	.	.	.	.	.	.	.	.	.	.	.	.
8C/	.	.	8C/	.	.	.	.	4r	.	4C/	-tes	4e\	-tes	.	.	8gg\	in	.
8C/J	.	.	8C/J	.	8e/	.	.	.	.	.	.	.	.	.	.	8gg\	hac	.
*	*	*	*	*	*	*	*	*	*	*	*Xij	*Xij	*	*	*	*	*	*
*	*	*	*	*	*v	*v	*	*	*	*	*	*	*	*	*	*	*	*
=50	=50	=50	=50	=50	=50	=50	=50	=50	=50	=50	=50	=50	=50	=50	=50	=50	=50
!	!	!	!	!	!	!	!	!	!LO:TX:a:t=2	!	!LO:TX:a:t=2	!	!	!	!	!	!
!	!	!	!	!	!	!	!	!	!LO:N:vis=0	!	!LO:N:vis=0	!	!	!	!	!	!
8C/L	.	.	8C/L	.	(8een\L	.	(8gg\L	.	1r	.	1r	.	.	.	8gg\L	la-	.
8C/	.	.	8C/	.	8dd\	.	8ff\	p	.	.	.	.	.	.	8ff\J	.	.
8C/	.	.	8C/	.	8cc\	.	8een\	.	.	.	.	.	.	.	(8een\L	-chri-	.
8C/J	.	.	8C/J	.	8b-\J)	.	8dd\J)	.	.	.	.	.	.	.	8dd\J)	.	.
=51	=51	=51	=51	=51	=51	=51	=51	=51	=51	=51	=51	=51	=51	=51	=51	=51	=51
8C/L	.	.	8C/L	.	(8a/L	.	(8cc\L	.	.	.	.	.	2r	.	(8cc\L	-ma-	.
8C/	.	.	8C/	.	8g/	.	8b-\	.	.	.	.	.	.	.	8b-\J)	.	.
8C/	.	.	8C/	.	8f/	.	8a\	.	.	.	.	.	.	.	(8a\L	-rum	.
8C/J	.	.	8C/J	.	8en/J)	.	8g\J)	.	.	.	.	.	.	.	8g\J)	.	.
=52	=52	=52	=52	=52	=52	=52	=52	=52	=52	=52	=52	=52	=52	=52	=52	=52	=52
!	!	!	!LO:TX:b:i:t=P:problem:f=for	!	!	!	!LO:TX:a:t=P:problem:mixedbeam	!	!	!	!	!	!	!	!	!	!
8F\L	.	f	8F\L	f	8f/L	f	8a/L	f	4F\	Val-	4c\	Val-	4f\	val-	4a\	val-	.
!	!	!	!	!	!	!	!LO:TUP:a:problem:klamra łukowa	!	!	!	!	!	!	!	!	!	!
16F\L	.	.	16F\L	.	16a/L	.	24ff\L	.	.	.	.	.	.	.	.	.	.
.	.	.	.	.	.	.	24een\	.	.	.	.	.	.	.	.	.	.
16E-\JJ	.	.	16E-\JJ	.	16g/JJ	.	.	.	.	.	.	.	.	.	.	.	.
.	.	.	.	.	.	.	24dd\JJ	.	.	.	.	.	.	.	.	.	.
!LO:TX:a:t=P:problem:mixedbeam	!	!	!LO:TX:a:t=P:problem:mixedbeam	!	!	!	!	!	!	!	!	!	!	!	!	!	!
8F\L	.	.	8F\L	.	8a/L	.	16cc~\LL	.	4F\	-le	4c\	-le	4a\	-le	4ff\	-le	.
.	.	.	.	.	.	.	16cc~\	.	.	.	.	.	.	.	.	.	.
8FF/J	.	.	8FF/J	.	8a/J	.	16cc~\	.	.	.	.	.	.	.	.	.	.
.	.	.	.	.	.	.	16cc~\JJ	.	.	.	.	.	.	.	.	.	.
!LO:LB:g=original	!	!	!	!	!LO:LB:g=original	!	!LO:LB:g=original	!	!	!	!	!	!	!	!	!	!
=53	=53	=53	=53	=53	=53	=53	=53	=53	=53	=53	=53	=53	=53	=53	=53	=53	=53
!	!	!	!	!	!	!	!	!	!LO:TX:a:t=2	!	!LO:TX:a:t=2	!	!LO:TX:a:t=2	!	!	!	!
!	!	!	!	!	!	!	!	!	!LO:N:vis=0	!	!LO:N:vis=0	!	!	!	!	!	!
8C/L	.	.	8C/L	.	(8een\L	.	(8gg\L	.	1r	.	1r	.	2r	.	(8gg\L	la-	.
8C/	.	p	8C/	p	8dd\	p	8ff\	p	.	.	.	.	.	.	8ff\J)	.	.
8C/	.	.	8C/	.	8cc\	.	8een\	.	.	.	.	.	.	.	(8een\L	-chri-	.
8C/J	.	.	8C/J	.	8b-\J)	.	8dd\)J	.	.	.	.	.	.	.	8dd\J)	.	.
=54	=54	=54	=54	=54	=54	=54	=54	=54	=54	=54	=54	=54	=54	=54	=54	=54	=54
8C/L	.	.	8C/L	.	(8a/L	.	(8cc\L	.	.	.	.	.	2r	.	(8cc\L	-ma-	.
8C/	.	.	8C/	.	8g/	.	8b-\	.	.	.	.	.	.	.	8b-\J)	.	.
8C/	.	.	8C/	.	8f/	.	8a\	.	.	.	.	.	.	.	(8a\L	-rum	.
8C/J	.	.	8C/J	.	8en/J)	.	8g\J)	.	.	.	.	.	.	.	8g\J)	.	.
!	!	!	!	!	!	!	!	!	!LO:LB:g=original	!	!	!	!	!	!	!	!
=55	=55	=55	=55	=55	=55	=55	=55	=55	=55	=55	=55	=55	=55	=55	=55	=55	=55
*	*	*	*	*	*	*	*	*	*	*ij	*	*ij	*	*ij	*	*	*
8F\L	.	f	8F\L	f	8f/L	f	8a\L	.	4F\	Val-	4c\	Val-	4f\	val-	4a\	val-	.
!	!	!	!	!	!	!	!LO:TUP:a:problem:klamra łukowa	!	!	!	!	!	!	!	!	!	!
16F\L	.	.	16F\L	.	16a/L	.	24ff\L	.	.	.	.	.	.	.	.	.	.
.	.	.	.	.	.	.	24een\	.	.	.	.	.	.	.	.	.	.
16E-\JJ	.	.	16E-\JJ	.	16g/JJ	.	.	.	.	.	.	.	.	.	.	.	.
.	.	.	.	.	.	.	24dd\JJ	.	.	.	.	.	.	.	.	.	.
!LO:TX:a:t=P:problem:mixedbeam	!	!	!LO:TX:a:t=P:problem:mixedbeam	!	!	!	!	!	!	!	!	!	!	!	!	!	!
8F\L	.	.	8F\L	.	8a/L	.	16cc~\LL	.	4F\	-le	4c\	-le	4a\	-le	4ff\	-le	.
.	.	.	.	.	.	.	16cc~\	.	.	.	.	.	.	.	.	.	.
8FF/J	.	.	8FF/J	.	8a/J	.	16cc~\	.	.	.	.	.	.	.	.	.	.
.	.	.	.	.	.	.	16cc~\JJ	.	.	.	.	.	.	.	.	.	.
*	*	*	*	*	*	*	*	*	*	*Xij	*	*Xij	*	*Xij	*	*	*
=56	=56	=56	=56	=56	=56	=56	=56	=56	=56	=56	=56	=56	=56	=56	=56	=56	=56
8F\L	.	.	8F\L	.	8f/	p	8cc\L	.	2F\	in	2F/	in	8r	.	8r	.	.
!	!	!	!	!	!	!	!	!	!	!	!	!	!	!	!LO:LB:g=original	!	!
!	!	!	!	!	!	!	!LO:TUP:a:problem:klamra łukowa	!	!	!	!	!	!	!	!LO:TUP:a:problem:klamra łukowa	!	!
8B-\	.	.	8B-\	.	4f/	.	24ff\L	.	.	.	.	.	8b-\L	Val-	24ff\LL	Sal-	.
.	.	.	.	.	.	.	24een\	.	.	.	.	.	.	.	24een\	.	.
.	.	.	.	.	.	.	24dd\JJ	.	.	.	.	.	.	.	24dd\JJ	.	.
8A\	.	.	8A\	.	.	.	8cc\L	.	.	.	.	.	8a\	.	8cc\L	.	.
!	!	!	!	!	!	!	!LO:TUP:a:problem:klamra łukowa	!	!	!	!	!	!	!	!LO:TUP:a:problem:klamra łukowa	!	!
8G\J	.	.	8G\J	.	8f/	.	24dd\L	.	.	.	.	.	8g\J	.	24dd\L	.	.
.	.	.	.	.	.	.	24cc\	.	.	.	.	.	.	.	24cc\	.	.
.	.	.	.	.	.	.	24b-\JJ	.	.	.	.	.	.	.	24b-\JJ	.	.
!	!	!	!	!	!	!	!	!	!	!	!	!	!LO:LB:g=original	!	!	!	!
=57	=57	=57	=57	=57	=57	=57	=57	=57	=57	=57	=57	=57	=57	=57	=57	=57	=57
8F\L	.	.	8F\L	.	8f/	.	8a\L	.	2F\	hac	2F/	hac	8f\L	.	8a\L	.	.
!	!	!	!	!	!	!	!LO:TUP:a:problem:klamra łukowa	!	!	!	!	!	!	!	!LO:TUP:a:problem:klamra łukowa	!	!
8B-\	.	.	8B-\	.	4f/	.	24ff\L	.	.	.	.	.	8b-\	.	24ff\L	.	.
.	.	.	.	.	.	.	24een\	.	.	.	.	.	.	.	24een\	.	.
.	.	.	.	.	.	.	24dd\JJ	.	.	.	.	.	.	.	24dd\JJ	.	.
8A\	.	.	8A\	.	.	.	8cc\L	.	.	.	.	.	8a\	.	8cc\L	.	.
!	!	!	!	!	!	!	!LO:TUP:a:problem:klamra łukowa	!	!	!	!	!	!	!	!LO:TUP:a:problem:klamra łukowa	!	!
8G\J	.	.	8G\J	.	8f/	.	24dd\L	.	.	.	.	.	8g\J	.	24dd\L	.	.
.	.	.	.	.	.	.	24cc\	.	.	.	.	.	.	.	24cc\	.	.
.	.	.	.	.	.	.	24b-\JJ	.	.	.	.	.	.	.	24b-\JJ	.	.
!	!	!	!LO:LB:g=original	!	!	!	!	!	!	!	!	!	!	!	!	!	!
=58	=58	=58	=58	=58	=58	=58	=58	=58	=58	=58	=58	=58	=58	=58	=58	=58	=58
!LO:TX:a:t=P:problem:mixedbeam	!	!	!LO:TX:a:t=P:problem:mixedbeam	!	!	!	!LO:TX:a:t=P:problem:mixedbeam	!	!	!	!	!	!	!	!	!	!
8F\L	.	.	8F\L	.	8f/	.	8a/L	f	4F\	la-	4F/	la-	8f\L	.	8a\L	.	.
!	!	!	!	!	!	!	!LO:TUP:a:problem:klamra łukowa	!	!	!	!	!	!	!	!LO:TUP:a:problem:klamra łukowa	!	!
8B-\	.	.	8B-\	.	4f/	.	24bb-\L	.	.	.	.	.	8g\	.	24b-\L	.	.
.	.	.	.	.	.	.	24aa\	.	.	.	.	.	.	.	24a\	.	.
.	.	.	.	.	.	.	24gg\JJ	.	.	.	.	.	.	.	24g\JJ	.	.
8c\	.	.	8c\	.	.	.	8ff\L	.	4F\	-chri-	4F/	-chri-	8f\	.	8a\L	.	.
8C/J	.	.	8C/J	.	8c/	.	8gg\J	.	.	.	.	.	8en\J	.	8g\J	.	.
=59	=59	=59	=59	=59	=59	=59	=59	=59	=59	=59	=59	=59	=59	=59	=59	=59	=59
8F\L	.	.	8F\L	.	8f/	.	8ff\	.	2F\	-ma-	2F/	-ma-	8f\	-le	8a\	-ve	.
!	!	!	!	!	!	!	!	!	!	!	!	!	!LO:SIC:o:s=:v:=val-	!	!	!	!
!	!	!	!	!	!	!	!LO:TUP:a:problem:klamra łukowa	!	!	!	!	!	!	!	!LO:TUP:a:problem:klamra łukowa	!	!
8B-\	.	p	8B-\	.	4f/	.	24ff\LL	p	.	.	.	.	8b-\L	va-	24ff\LL	val-	.
.	.	.	.	.	.	.	24een\	.	.	.	.	.	.	.	24een\	.	.
.	.	.	.	.	.	.	24dd\JJ	.	.	.	.	.	.	.	24dd\JJ	.	.
8A\	.	.	8A\	p	.	.	8cc\	.	.	.	.	.	8a\	.	8cc\L	.	.
!	!	!	!	!	!	!	!LO:LB:g=original	!	!	!	!	!	!	!	!	!	!
!	!	!	!	!	!	!	!LO:TUP:a:problem:klamra łukowa	!	!	!	!	!	!	!	!LO:TUP:a:problem:klamra łukowa	!	!
8G\J	.	.	8G\J	.	8f/	.	24dd\LL	.	.	.	.	.	8g\J	.	24dd\L	.	.
.	.	.	.	.	.	.	24cc\	.	.	.	.	.	.	.	24cc\	.	.
.	.	.	.	.	.	.	24b-\JJ	.	.	.	.	.	.	.	24b-\JJ	.	.
=60	=60	=60	=60	=60	=60	=60	=60	=60	=60	=60	=60	=60	=60	=60	=60	=60	=60
!	!	!	!	!	!	!	!LO:TX:a:t=P:problem:mixedbeam	!	!	!	!	!	!	!	!	!	!
8F\L	.	.	8F\L	.	8f/	.	8a/L	.	2F\	-rum	2F/	-rum	8f\L	.	8a\L	.	.
!	!	!	!	!	!	!	!LO:TUP:a:problem:klamra łukowa	!	!	!	!	!	!	!	!	!	!
8B-\	.	.	8B-\	.	4f/	.	24ff\L	.	.	.	.	.	8b-\	.	24ff\L	.	.
.	.	.	.	.	.	.	24een\	.	.	.	.	.	.	.	24een\	.	.
.	.	.	.	.	.	.	24dd\JJ	.	.	.	.	.	.	.	24dd\JJ	.	.
!	!	!	!	!	!	!	!	!	!	!	!	!	!	!	!LO:LB:g=original	!	!
8A\	.	.	8A\	.	.	.	8cc\L	.	.	.	.	.	8a\	.	8cc\L	.	.
!	!	!	!	!	!	!	!	!	!	!	!	!	!	!	!LO:TUP:a:problem:klamra łukowa	!	!
8G\J	.	.	8G\J	.	8f/	.	24dd\L	.	.	.	.	.	8g\J	.	24dd\L	.	.
.	.	.	.	.	.	.	24cc\	.	.	.	.	.	.	.	24cc\	.	.
.	.	.	.	.	.	.	24b-\JJ	.	.	.	.	.	.	.	24b-\JJ	.	.
!	!	!	!	!	!	!	!	!	!	!	!LO:LB:g=original	!	!	!	!	!	!
=61	=61	=61	=61	=61	=61	=61	=61	=61	=61	=61	=61	=61	=61	=61	=61	=61	=61
!LO:TX:a:t=P:problem:mixedbeam	!	!	!LO:TX:a:t=P:problem:mixedbeam	!	!	!	!LO:TX:a:t=P:problem:mixedbeam	!	!LO:TX:a:t=P:problem:mixedbeam	!	!	!	!	!	!	!	!
8F\L	.	.	8F\L	.	8f/	.	8a/L	.	8F\L	val-	(4F/	val-	8f\L	.	8a\L	.	.
!	!	!	!	!	!	!	!LO:TX:a:t=P:problem:f=f	!	!	!	!	!	!	!	!	!	!
!	!	!	!	!	!	!	!	!	!	!	!	!	!	!	!LO:TUP:a:problem:klamra łukowa	!	!
8B-\	.	.	8B-\	.	4f/	.	24bb-\L	f	8BB-/J	.	.	.	8g\	.	24b-\L	.	.
.	.	.	.	.	.	.	24aa\	.	.	.	.	.	.	.	24a\	.	.
.	.	.	.	.	.	.	24gg\JJ	.	.	.	.	.	.	.	24g\JJ	.	.
!	!	!	!	!	!	!	!	!	!	!	!	!	!	!	!LO:TX:a:t=P:problem:mixedbeam	!	!
8c\	.	.	8c\	.	.	.	8ff\L	.	4C/	.	4c\)	.	8f\	.	8f/L	.	.
8C/J	.	.	8C/J	.	8c/	.	8gg\J	.	.	.	.	.	8en\J	.	8een\J	.	.
=62	=62	=62	=62	=62	=62	=62	=62	=62	=62	=62	=62	=62	=62	=62	=62	=62	=62
4F\	.	f	4F\	.	4.A/	.	8.ff\L	.	4F\	-le	4c\	-le	4a\	-le	4ff\	-le	.
.	.	.	.	.	.	.	16ff\Jk	.	.	.	.	.	.	.	.	.	.
!	!	!	!	!	!	!	!LO:TX:a:t=P:problem:mixedbeam	!	!	!	!	!	!	!	!	!	!
4F\	.	.	4F\	.	.	.	8.f/L	.	4r	.	4r	.	4r	.	4r	.	.
.	.	.	.	.	8ff\	f	.	.	.	.	.	.	.	.	.	.	.
.	.	.	.	.	.	.	16aa\Jk	.	.	.	.	.	.	.	.	.	.
=63	=63	=63	=63	=63	=63	=63	=63	=63	=63	=63	=63	=63	=63	=63	=63	=63	=63
!	!	!	!	!	!	!	!	!	!LO:TX:b:t=14	!	!LO:TX:b:t=14	!	!LO:TX:b:t=11	!	!LO:TX:a:t=7	!	!
!	!	!	!	!	!	!	!	!	!LO:N:vis=00	!	!LO:N:vis=00	!	!LO:N:vis=00	!	!LO:N:vis=00	!	!
8r	.	.	8r	.	8ff\L	.	8aa\L	.	0r	.	0r	.	0r	.	0r	.	.
16c\LL	.	.	16c\LL	.	8een\J	.	8gg\J	.	.	.	.	.	.	.	.	.	.
16Bn\JJ	.	.	16Bn\JJ	.	.	.	.	.	.	.	.	.	.	.	.	.	.
!LO:TX:a:t=P:problem:mixedbeam	!	!	!LO:TX:a:t=P:problem:mixedbeam	!	!	!	!	!	!	!	!	!	!	!	!	!	!
!LO:LB:g=original	!	!	!	!	!	!	!	!	!	!	!	!	!	!	!	!	!
8c\L	.	.	8c\L	.	8r	.	8r	.	.	.	.	.	.	.	.	.	.
8C/J	.	.	8C/J	.	8ee\	.	8gg\	.	.	.	.	.	.	.	.	.	.
!	!	!	!	!	!LO:LB:g=original	!	!	!	!	!	!	!	!	!	!	!	!
=64	=64	=64	=64	=64	=64	=64	=64	=64	=64	=64	=64	=64	=64	=64	=64	=64	=64
!	!	!	!	!	!LO:TX:a:t=P:problem:p=p	!	!	!	!	!	!	!	!	!	!	!	!
4C/	n	p	4C/	p	8.een\L	p	8.gg\L	p	.	.	.	.	.	.	.	.	.
.	.	.	.	.	16gg\K	.	16bb-\K	.	.	.	.	.	.	.	.	.	.
4C/	.	.	4C/	.	8.ff\	.	8.aa\	.	.	.	.	.	.	.	.	.	.
.	.	.	.	.	16ee\Jk	.	16gg\Jk	.	.	.	.	.	.	.	.	.	.
=65	=65	=65	=65	=65	=65	=65	=65	=65	=65	=65	=65	=65	=65	=65	=65	=65	=65
!LO:TX:a:t=P:problem:mixedbeam	!	!	!LO:TX:a:t=P:problem:mixedbeam	!	!LO:TX:a:t=P:problem:mixedbeam	!	!	!	!	!	!	!	!	!	!	!	!
8FF/L	.	.	8FF/L	.	8ff\L	.	8aa\L	f	.	.	.	.	.	.	.	.	.
(>8F\	.	f	(8F\	f	8a/	f	16aa\L	.	.	.	.	.	.	.	.	.	.
.	.	.	.	.	.	.	16bb-\JJ	.	.	.	.	.	.	.	.	.	.
8En\	.	.	8En\	.	8g/	.	16ccc\LL	.	.	.	.	.	.	.	.	.	.
.	.	.	.	.	.	.	16ccc\	.	.	.	.	.	.	.	.	.	.
8F\J)	.	.	8F\J)	.	8a/J	.	16ccc\	.	.	.	.	.	.	.	.	.	.
.	.	.	.	.	.	.	16ccc\JJ	.	.	.	.	.	.	.	.	.	.
=66	=66	=66	=66	=66	=66	=66	=66	=66	=66	=66	=66	=66	=66	=66	=66	=66	=66
!LO:TX:a:t=P:problem:p=p.	!	!	!	!	!	!	!	!	!	!	!	!	!	!	!	!	!
4C/	.	p	4C/	p	8.en/L	.	8.gg\L	p	.	.	.	.	.	.	.	.	.
.	.	.	.	.	16g/K	.	16bb-\K	.	.	.	.	.	.	.	.	.	.
4C/	.	.	4C/	.	8.f/	.	8.aa\	.	.	.	.	.	.	.	.	.	.
.	.	.	.	.	16e/Jk	.	16gg\Jk	.	.	.	.	.	.	.	.	.	.
!	!	!	!	!	!	!	!LO:LB:g=original	!	!	!	!	!	!	!	!	!	!
=67	=67	=67	=67	=67	=67	=67	=67	=67	=67	=67	=67	=67	=67	=67	=67	=67	=67
!	!	!	!LO:TX:a:t=P:problem:f=f.	!	!	!	!	!	!	!	!	!	!	!	!	!	!
!	!	!	!	!	!	!	!	!	!LO:N:vis=00	!	!LO:N:vis=00	!	!LO:N:vis=00	!	!LO:N:vis=0	!	!
8F\L	.	.	8F\L	f	8ff\L	.	8aa\L	f	0r	.	0r	.	0r	.	1r	.	.
8G\	.	.	8G\	.	16.een\L	.	16.gg\L	.	.	.	.	.	.	.	.	.	.
.	.	.	.	.	32dd\JJk	.	32ff\JJk	.	.	.	.	.	.	.	.	.	.
8A\	.	f	8A\	.	16.cc\LL	.	16.een\LL	.	.	.	.	.	.	.	.	.	.
.	.	.	.	.	32b-\K	.	32dd\K	.	.	.	.	.	.	.	.	.	.
8B-\J	.	.	8B-\J	.	16.a\	.	16cc\	.	.	.	.	.	.	.	.	.	.
.	.	.	.	.	.	.	16b-\JJ	.	.	.	.	.	.	.	.	.	.
.	.	.	.	.	32g\JJk	.	.	.	.	.	.	.	.	.	.	.	.
!	!	!	!LO:LB:g=original	!	!	!	!	!	!	!	!	!	!	!	!	!	!
=68	=68	=68	=68	=68	=68	=68	=68	=68	=68	=68	=68	=68	=68	=68	=68	=68	=68
4c\	6	.	4c\	.	16.f/LL	.	16.a/LL	.	.	.	.	.	.	.	.	.	.
.	.	.	.	.	32en/K	.	32g/K	.	.	.	.	.	.	.	.	.	.
.	4	.	.	.	16.f/	.	16.a/	.	.	.	.	.	.	.	.	.	.
.	.	.	.	.	32g/JJk	.	32b-/JJk	.	.	.	.	.	.	.	.	.	.
.	.	.	.	.	.	.	8qqa/	.	.	.	.	.	.	.	.	.	.
4C/	5 3	.	4C/	.	8f/L	.	4g/	.	.	.	.	.	.	.	.	.	.
.	.	.	.	.	8e/J	.	.	.	.	.	.	.	.	.	.	.	.
=69	=69	=69	=69	=69	=69	=69	=69	=69	=69	=69	=69	=69	=69	=69	=69	=69	=69
4F\	.	.	4F\	.	8f/L	.	8f/L	.	.	.	.	.	.	.	2r	.	.
.	.	.	.	.	8c/	.	8c/	.	.	.	.	.	.	.	.	.	.
4r	.	.	4r	.	8f/J	.	8f/J	.	.	.	.	.	.	.	.	.	.
.	.	.	.	.	8r	.	8r	.	.	.	.	.	.	.	.	.	.
=70	=70	=70	=70	=70	=70	=70	=70	=70	=70	=70	=70	=70	=70	=70	=70	=70	=70
!	!	!	!LO:TX:a:t=P:problem:p=p.	!	!	!LO:DY:a	!	!	!	!	!	!	!	!	!	!	!
4F\	.	p	4F\	p	4.A/	p	8.cc\L	p	.	.	.	.	.	.	4cc\	E-	.
.	.	.	.	.	.	.	16ff\Jk	.	.	.	.	.	.	.	.	.	.
4F\	.	.	4F\	.	.	.	8.f/L	.	.	.	.	.	.	.	8.ff\L	-ja	.
.	.	.	.	.	8f/	.	.	.	.	.	.	.	.	.	.	.	.
.	.	.	.	.	.	.	16a/Jk	.	.	.	.	.	.	.	16a\Jk	.	.
=71	=71	=71	=71	=71	=71	=71	=71	=71	=71	=71	=71	=71	=71	=71	=71	=71	=71
!	!	!	!	!	!	!	!	!	!LO:N:vis=00	!	!LO:N:vis=00	!	!LO:N:vis=0	!	!	!	!
8r	.	.	8r	.	8f/L	.	8a/L	.	0r	.	0r	.	1r	.	8a\	Er-	.
16C/LL	n	.	16C/LL	.	8en/J	.	8g/J	.	.	.	.	.	.	.	8g\	-go	.
16BB-/JJ	.	.	16BBn/JJ	.	.	.	.	.	.	.	.	.	.	.	.	.	.
!	!	!	!	!	!	!LO:DY:a	!	!	!	!	!	!	!	!	!	!	!
8C/L	.	.	8C/L	.	16.c/LL	f	16.c/LL	f	.	.	.	.	.	.	4r	.	.
.	.	.	.	.	32Bn/K	.	32d/K	.	.	.	.	.	.	.	.	.	.
8C/J	.	.	8C/J	.	16.c/	.	16.en/	.	.	.	.	.	.	.	.	.	.
.	.	.	.	.	32d/JJk	.	32f/JJk	.	.	.	.	.	.	.	.	.	.
=72	=72	=72	=72	=72	=72	=72	=72	=72	=72	=72	=72	=72	=72	=72	=72	=72	=72
4C/	.	.	4C/	.	8.en/L	.	8.g/L	p	.	.	.	.	.	.	8.g\	ad-	.
.	.	.	.	.	16g/K	p	16b-/Jk	.	.	.	.	.	.	.	16b-\	-vo-	.
8C/L	.	.	8C/L	.	8.f/	.	8.a/L	.	.	.	.	.	.	.	8.a\	-ca-	.
8C/J	.	.	8C/J	.	.	.	.	.	.	.	.	.	.	.	.	.	.
.	.	.	.	.	16e/Jk	.	16g/Jk	.	.	.	.	.	.	.	16g\	-ta	.
!	!	!	!	!	!LO:LB:g=original	!	!	!	!	!	!	!	!	!	!	!	!
=73	=73	=73	=73	=73	=73	=73	=73	=73	=73	=73	=73	=73	=73	=73	=73	=73	=73
!LO:TX:a:t=P:problem:mixedbeam	!	!	!LO:TX:a:t=P:problem:mixedbeam	!	!	!	!	!	!	!	!	!	!	!	!	!	!
8FF/L	.	.	8FF/L	.	8f/L	.	8a\L	f	.	.	.	.	2r	.	(16a\LL	no-	.
.	.	.	.	.	.	.	.	.	.	.	.	.	.	.	16b-\JJ)	.	.
!LO:TX:b:t=P:problem:f=f.	!	!	!	!	!	!	!LO:TUP:a:problem:klamra łukowa	!	!	!	!	!	!	!	!	!	!
(>8F\	.	f	(8F\	f	8a/	f	24ff\L	.	.	.	.	.	.	.	8cc\	-stra	.
.	.	.	.	.	.	.	24een\	.	.	.	.	.	.	.	.	.	.
.	.	.	.	.	.	.	24dd\JJ	.	.	.	.	.	.	.	.	.	.
8En\	.	.	8En\	.	8g/	.	16cc\LL	.	.	.	.	.	.	.	4r	.	.
.	.	.	.	.	.	.	16cc\	.	.	.	.	.	.	.	.	.	.
8F\J)	.	.	8F\J)	.	8a/J	.	16cc\	.	.	.	.	.	.	.	.	.	.
.	.	.	.	.	.	.	16cc\JJ	.	.	.	.	.	.	.	.	.	.
!	!	!	!	!	!	!	!LO:LB:g=original	!	!	!	!	!	!	!	!LO:LB:g=original	!	!
=74	=74	=74	=74	=74	=74	=74	=74	=74	=74	=74	=74	=74	=74	=74	=74	=74	=74
!LO:TX:a:t=P:problem:p=p.	!	!	!	!	!	!	!	!	!	!	!	!	!	!	!	!	!
*	*	*	*	*	*	*	*	*	*	*	*	*	*	*	*	*ij	*
4F\	.	p	4F\	p	8.a/L	p	8.cc\L	p	.	.	.	.	8.a\	ad-	8.cc\	ad	.
.	.	.	.	.	16cc/Jk	.	16ee-\Jk	.	.	.	.	.	16cc\	-vo-	16ee-\	vo-	.
!	!	!	!	!	!	!	!	!	!	!	!	!	!LO:LB:g=original	!	!	!	!
4F\	.	.	4F\	.	8.b-/L	.	8.dd\L	.	.	.	.	.	8.b-\	-ca-	8.dd\	-ca-	.
.	.	.	.	.	16a/Jk	.	16cc\Jk	.	.	.	.	.	16a\	-ta	16cc\	-ta	.
!LO:LB:g=original	!	!	!	!	!	!	!	!	!	!	!	!	!	!	!	!	!
=75	=75	=75	=75	=75	=75	=75	=75	=75	=75	=75	=75	=75	=75	=75	=75	=75	=75
!	!	!	!	!	!LO:TX:a:t=P:problem:mixedbeam	!	!	!LO:N:vis=0	!	!LO:N:vis=0	!	!	!	!	!	!	!
4BB-/	.	f	4BB-/	f	8b-\L	.	16dd\LL	.	1r	.	1r	.	8b-\	no-	(16dd\LL	no-	.
.	.	.	.	.	.	.	16cc\J	.	.	.	.	.	.	.	16cc\JJ)	.	.
.	.	.	.	.	8d/J	.	8b-\J	.	.	.	.	.	8f\	-stra	8b-\	-stra	.
16.F\LL	.	.	16.F\LL	.	4r	.	16.b-\LL	f	.	.	.	.	4r	.	4r	.	.
32E-\K	.	.	32E-\K	.	.	.	32cc\K	.	.	.	.	.	.	.	.	.	.
16.D\	.	.	16.D\	.	.	.	16.dd\	.	.	.	.	.	.	.	.	.	.
32C\JJk	.	.	32C\JJk	.	.	.	32ee-\JJk	.	.	.	.	.	.	.	.	.	.
*	*	*	*	*	*	*	*	*	*	*	*	*	*	*	*	*Xij	*
=76	=76	=76	=76	=76	=76	=76	=76	=76	=76	=76	=76	=76	=76	=76	=76	=76	=76
!	!	!	!	!	!	!	!	!	!	!	!	!	!LO:TX:a:t=6	!	!	!	!
!	!	!	!	!	!	!	!	!	!	!	!	!	!LO:N:vis=00	!	!	!	!
4BB-/	.	.	4BB-/	.	4.d/	.	8.ff\L	.	.	.	.	.	0r	.	4ff\	il-	.
.	.	.	.	.	.	.	16bb-\Jk	.	.	.	.	.	.	.	.	.	.
4r	.	.	4r	.	.	.	8.b-\L	.	.	.	.	.	.	.	4b-\	-los	.
.	.	.	.	.	8B-/	.	.	.	.	.	.	.	.	.	.	.	.
.	.	.	.	.	.	.	16dd\Jk	.	.	.	.	.	.	.	.	.	.
=77	=77	=77	=77	=77	=77	=77	=77	=77	=77	=77	=77	=77	=77	=77	=77	=77	=77
4F\	.	p	4F\	p	8B-/L	.	8dd\L	.	8r	.	8r	.	.	.	8dd\	tu-	.
.	.	.	.	.	8A/J	.	8cc\J	.	8c\	Mi-	8e-\	Mi-	.	.	8cc\	-os	.
4F\	.	.	4F\	.	4r	.	4r	.	8B-\	-se-	8d\	-se-	.	.	4r	.	.
.	.	.	.	.	.	.	.	.	8A\	-ri-	8c\	-ri-	.	.	.	.	.
!	!	!	!LO:LB:g=original	!	!	!	!	!	!LO:LB:g=original	!	!	!	!	!	!	!	!
=78	=78	=78	=78	=78	=78	=78	=78	=78	=78	=78	=78	=78	=78	=78	=78	=78	=78
*	*	*	*	*	*	*	*	*	*	*	*	*	*	*	*	*ij	*
4BB-/	.	.	4BB-/	.	4.d/	.	8.ff\L	p	8B-\	-cor-	8d\	-cor-	.	.	4ff\	il-	.
.	.	.	.	.	.	.	.	.	8B-\	-des	8d\	-des	.	.	.	.	.
.	.	.	.	.	.	.	16bb-\Jk	.	.	.	.	.	.	.	.	.	.
4r	.	.	4r	.	.	.	8.b-\L	.	4r	.	4r	.	.	.	4b-\	-los	.
.	.	.	.	.	8B-/	.	.	.	.	.	.	.	.	.	.	.	.
.	.	.	.	.	.	.	16dd\Jk	.	.	.	.	.	.	.	.	.	.
=79	=79	=79	=79	=79	=79	=79	=79	=79	=79	=79	=79	=79	=79	=79	=79	=79	=79
.	.	.	.	.	8qqB-/	.	.	.	.	.	.	.	.	.	.	.	.
4F\	.	.	4F\	.	4A/	.	8cc\	.	8r	.	8r	.	.	.	8dd\	tu-	.
*	*	*	*	*	*	*	*	*	*	*ij	*	*ij	*	*	*	*	*
.	.	.	.	.	.	.	8r	.	8c\	Mi-	8e-\	Mi-	.	.	8cc\	-os	.
4F\	.	.	4F\	.	4r	.	4r	.	8B-\	-se-	8d\	-se-	.	.	4r	.	.
.	.	.	.	.	.	.	.	.	8A\	-ri-	8c\	-ri-	.	.	.	.	.
*	*	*	*	*	*	*	*	*	*	*	*	*	*	*	*	*Xij	*
=80	=80	=80	=80	=80	=80	=80	=80	=80	=80	=80	=80	=80	=80	=80	=80	=80	=80
!LO:TX:a:t=P:problem:mixedbeam	!	!	!LO:TX:a:t=P:problem:mixedbeam	!	!	!	!	!	!	!	!	!	!LO:N:vis=0	!	!LO:TX:a:t=1	!	!
8BB-/L	.	f	8BB-/L	.	8r	.	8r	.	8B-\	-cor-	8d\	-cor-	1r	.	2r	.	.
16.B-\L	.	.	16.B-\L	f	16d/LL	.	16.b-/LL	.	8B-\	-des	8d\	-des	.	.	.	.	.
.	.	.	.	.	16c/JJ	.	.	.	.	.	.	.	.	.	.	.	.
32A\JJk	.	.	32A\JJk	.	.	.	32a/JJk	.	.	.	.	.	.	.	.	.	.
16.B-\LL	.	.	16.B-\LL	.	8d/L	.	16.b-\LL	.	4r	.	4r	.	.	.	.	.	.
32E-\K	.	.	32E-\K	.	.	.	32cc\K	.	.	.	.	.	.	.	.	.	.
16.D\	.	.	16.D\	.	8e-/J	.	16.dd\	.	.	.	.	.	.	.	.	.	.
32C\JJk	.	.	32C\JJk	.	.	.	32ee-\JJk	.	.	.	.	.	.	.	.	.	.
*	*	*	*	*	*	*	*	*	*	*Xij	*	*Xij	*	*	*	*	*
=81	=81	=81	=81	=81	=81	=81	=81	=81	=81	=81	=81	=81	=81	=81	=81	=81	=81
!	!	!	!	!	!	!	!	!	!LO:TX:a:t=2	!	!LO:TX:a:t=2	!	!	!	!LO:TX:a:t=P:problem:p=p.	!	!
!	!	!	!	!	!	!	!	!	!LO:N:vis=0	!	!LO:N:vis=0	!	!	!	!	!	!
8r	.	.	8r	.	8.dd\L	.	8.ff\L	.	1r	.	1r	.	.	.	8.bn\	o-	p
8BBn/L	.	p	8BBn/L	p	.	.	.	.	.	.	.	.	.	.	.	.	.
.	.	.	.	.	16ff\Jk	.	16aa-X\Jk	.	.	.	.	.	.	.	16dd\	-cu-	.
8C/	.	.	8C/	.	4ee-\	.	4gg\	.	.	.	.	.	.	.	4cc\	-los	.
8CC/J	.	.	8CC/J	.	.	.	.	.	.	.	.	.	.	.	.	.	.
!	!	!	!	!	!	!	!	!	!	!	!	!	!	!	!LO:LB:g=original	!	!
=82	=82	=82	=82	=82	=82	=82	=82	=82	=82	=82	=82	=82	=82	=82	=82	=82	=82
*	*	*	*	*	*	*	*	*	*	*	*	*	*	*	*	*ij	*
8r	.	.	8r	.	4Bn/	.	8.dd\L	.	.	.	.	.	8.bn\	o-	8.dd\	o-	.
8BBn/L	.	.	8BBn/L	.	.	.	.	.	.	.	.	.	.	.	.	.	.
.	.	.	.	.	.	.	16ff\Jk	.	.	.	.	.	16dd\	-cu-	16ff\	-cu-	.
8C/	.	.	8C/	.	4c/	.	4ee-\	.	.	.	.	.	4cc\	-los	4ee-\	-los	.
8CC/J	.	.	8CC/J	.	.	.	.	.	.	.	.	.	.	.	.	.	.
*	*	*	*	*	*	*	*	*	*	*	*	*	*	*	*	*Xij	*
!	!	!	!	!	!	!	!LO:LB:g=original	!	!	!	!LO:LB:g=original	!	!	!	!	!	!
=83	=83	=83	=83	=83	=83	=83	=83	=83	=83	=83	=83	=83	=83	=83	=83	=83	=83
!	!	!	!LO:TX:a:t=P:problem:mixedbeam	!	!	!	!	!	!	!	!	!	!	!	!	!	!
8C\L	.	.	8C\L	.	8c/	.	8ee-\L	f	4F\	ad	4c\	ad	8r	.	8r	.	.
!	!	!	!	!	!	!	!LO:TUP:a:problem:klamra łukowa	!	!	!	!	!	!	!	!	!	!
8F\	.	f	8F\	f	4c/	.	24aa-X\L	.	.	.	.	.	8f\	ad	8aa-X\	ad	.
.	.	.	.	.	.	.	24gg\	.	.	.	.	.	.	.	.	.	.
.	.	.	.	.	.	.	24ff\JJ	.	.	.	.	.	.	.	.	.	.
8G\	.	.	8G\	.	.	.	8ee-\L	.	8G\	nos	8c\	nos	8e-\	nos	8gg\	nos	.
!	!	!	!	!	!	!	!LO:TUP:a:problem:klamra łukowa	!	!	!	!	!	!	!	!	!	!
8GG\J	.	.	8GG/J	.	8c/	.	24ff\L	.	8GG/	con-	8c\	con-	8f\	con-	8ff\	con-	.
.	.	.	.	.	.	.	24ee-\	.	.	.	.	.	.	.	.	.	.
.	.	.	.	.	.	.	24dd\JJ	.	.	.	.	.	.	.	.	.	.
=84	=84	=84	=84	=84	=84	=84	=84	=84	=84	=84	=84	=84	=84	=84	=84	=84	=84
8C/L	.	.	8C/L	.	8r	.	8cc\L	.	4C/	-ver-	4c\	-ver-	(8g\L	-ver-	(8ee-X\L	-ver-	.
!	!	!	!	!	!	!	!LO:TUP:a:problem:klamra łukowa	!	!	!	!	!	!	!	!	!	!
8GG/J	.	.	8GG/J	.	8G/	.	24dd\L	.	.	.	.	.	8f\J)	.	8dd\J)	.	.
.	.	.	.	.	.	.	24cc\	.	.	.	.	.	.	.	.	.	.
.	.	.	.	.	.	.	24bn\JJ	.	.	.	.	.	.	.	.	.	.
4CC/	.	.	4CC/	.	4G/	.	4cc\	.	4C/	-te	4c\	-te	8e-\	-te	4cc\	-te	.
.	.	.	.	.	.	.	.	.	.	.	.	.	8r	.	.	.	.
!	!	!	!	!	!LO:LB:g=original	!	!	!	!	!	!	!	!	!	!	!	!
=85	=85	=85	=85	=85	=85	=85	=85	=85	=85	=85	=85	=85	=85	=85	=85	=85	=85
!	!	!	!	!	!	!	!	!	!LO:TX:a:t=2	!	!LO:N:vis=0	!	!LO:TX:a:t=1	!	!	!	!
!	!	!	!	!	!	!	!	!	!LO:N:vis=0	!	!	!	!	!	!	!	!
8r	.	.	8r	.	8.cc\L	.	8.ee-\L	p	1r	.	1r	.	2r	.	8.a\	o-	.
!LO:TX:a:t=P:problem:mixedbeam	!	!	!LO:TX:a:t=P:problem:mixedbeam	!	!	!	!	!	!	!	!	!	!	!	!	!	!
8AA/L	.	.	8AA/L	.	.	.	.	.	.	.	.	.	.	.	.	.	.
.	.	.	.	.	16ee-\Jk	p	16gg\Jk	.	.	.	.	.	.	.	16cc\	-cu-	.
8BB-/	.	p	8BB-/	p	4dd\	.	4ff\	.	.	.	.	.	.	.	4b-\	-los	.
8B-\J	.	.	8B-\J	.	.	.	.	.	.	.	.	.	.	.	.	.	.
!LO:LB:g=original	!	!	!	!	!	!	!	!	!	!	!	!	!	!	!	!	!
=86	=86	=86	=86	=86	=86	=86	=86	=86	=86	=86	=86	=86	=86	=86	=86	=86	=86
*	*	*	*	*	*	*	*	*	*	*	*	*	*	*	*	*ij	*
8r	.	.	8r	.	4A/	.	8.cc\L	.	.	.	.	.	8.a\	o-	8.cc\	o-	.
8A\L	.	.	8A\L	.	.	.	.	.	.	.	.	.	.	.	.	.	.
.	.	.	.	.	.	.	16ee-\Jk	.	.	.	.	.	16cc\	-cu-	16ee-\	-cu-	.
8B-\	.	.	8B-\	.	4B-/	.	4dd\	.	.	.	.	.	4b-\	-los	4dd\	-los	.
!LO:TX:a:t=P:problem:mixedbeam	!	!	!LO:TX:a:t=P:problem:mixedbeam	!	!	!	!	!	!	!	!	!	!	!	!	!	!
8BB-/J	.	.	8BB-/J	.	.	.	.	.	.	.	.	.	.	.	.	.	.
*	*	*	*	*	*	*	*	*	*	*	*	*	*	*	*	*Xij	*
!	!	!	!LO:LB:g=original	!	!	!	!	!	!	!	!	!	!LO:LB:g=original	!	!	!	!
=87	=87	=87	=87	=87	=87	=87	=87	=87	=87	=87	=87	=87	=87	=87	=87	=87	=87
*	*	*	*	*	*	*	*	*	*	*	*	*ij	*	*	*	*	*
8r	.	.	8r	.	8B-/	f	8dd\L	.	4E-\	ad	4B-\	ad	8r	.	8r	.	.
!	!	!	!	!	!	!	!LO:TX:a:t=P:problem:f=f.	!	!	!	!	!	!	!	!	!	!
8E-\L	.	.	8E-\L	.	4B-/	.	24gg\L	f	.	.	.	.	8e-\	ad	8gg\	ad	.
.	.	.	.	.	.	.	24ff\	.	.	.	.	.	.	.	.	.	.
.	.	.	.	.	.	.	24ee-\JJ	.	.	.	.	.	.	.	.	.	.
8F\	.	.	8F\	.	.	.	8dd\L	.	8F\	nos	8B-\	nos	8d\	nos	8ff\	nos	.
!LO:TX:a:t=P:problem:mixedbeam	!	!	!LO:TX:a:t=P:problem:mixedbeam	!	!	!LO:TUP:a:problem:klamra łukowa	!	!	!	!	!	!	!	!	!	!	!
8FF/J	.	.	8FF/J	.	8B-/	.	24ee-\L	.	8FF/	con-	8B-\	con-	8e-\	con-	8ee-\	con-	.
.	.	.	.	.	.	.	24dd\	.	.	.	.	.	.	.	.	.	.
.	.	.	.	.	.	.	24cc\JJ	.	.	.	.	.	.	.	.	.	.
!	!	!	!	!	!	!	!	!	!LO:LB:g=original	!	!	!	!	!	!	!	!
=88	=88	=88	=88	=88	=88	=88	=88	=88	=88	=88	=88	=88	=88	=88	=88	=88	=88
8BB-/L	.	.	8BB-/L	.	8r	.	8b-\L	.	4BB-/	-ver-	4B-\	-ver-	(8f\L	-ver-	(8dd\L	-ver-	.
!	!	!	!	!	!	!	!LO:TUP:a:problem:klamra łukowa	!	!	!	!	!	!	!	!	!	!
8FF/	.	.	8FF/	.	4f/	.	24cc\L	.	.	.	.	.	8e-\J)	.	8cc\J)	.	.
.	.	.	.	.	.	.	24b-\	.	.	.	.	.	.	.	.	.	.
.	.	.	.	.	.	.	24a\JJ	.	.	.	.	.	.	.	.	.	.
8BB-/	.	.	8BB-/	.	.	.	4b-\	.	4BB-/	-te	4B-\	-te	4d\	-te	4b-\	-te	.
!LO:TX:a:t=P:problem:mixedbeam	!	!	!LO:TX:a:t=P:problem:mixedbeam	!	!	!	!	!	!	!	!	!	!	!	!	!	!
8B-\J	.	.	8B-\J	.	8f/	.	.	.	.	.	.	.	.	.	.	.	.
*	*	*	*	*	*	*	*	*	*	*	*	*Xij	*	*	*	*	*
!	!	!	!	!	!	!	!	!	!	!	!	!	!	!	!LO:LB:g=original	!	!
=89	=89	=89	=89	=89	=89	=89	=89	=89	=89	=89	=89	=89	=89	=89	=89	=89	=89
8BB-/L	.	.	8BB-\L	.	4dd\	.	4ff\	.	2BB-/	et	2BB-/	et	4dd\	Et	4ff\	et	.
!	!	!	!LO:TX:a:t=P:problem:mixedbeam	!	!	!	!	!	!	!	!	!	!	!	!	!	!
8B-\	.	.	8B-\	.	.	.	.	.	.	.	.	.	.	.	.	.	.
8BB-/	.	.	8BB-\	.	8b-\L	.	(8dd\L	.	.	.	.	.	8b-\	Je-	8dd\	je-	.
!LO:TX:a:t=P:problem:mixedbeam	!	!	!LO:TX:a:t=P:problem:mixedbeam	!	!	!	!	!	!	!	!	!	!	!	!	!	!
8B-\J	.	.	8B-\J	.	8cc\J	.	8ee-\J)	.	.	.	.	.	8cc\	-sum	8ee-\	-sum	.
=90	=90	=90	=90	=90	=90	=90	=90	=90	=90	=90	=90	=90	=90	=90	=90	=90	=90
8BB-/L	.	.	8BB-\L	.	8dd\L	.	8ff\L	.	2BB-/	Je-	2BB-/	je-	4dd\	be-	(8ff\L	be-	.
!LO:TX:a:t=P:problem:mixedbeam	!	!	!LO:TX:a:t=P:problem:mixedbeam	!	!	!	!	!	!	!	!	!	!	!	!	!	!
8B-\	.	.	8B-\	.	(8gg\	.	(8bb-\	.	.	.	.	.	.	.	8bb-\J)	.	.
8BB-/	.	.	8BB-\	.	8ff\	.	8aa\	.	.	.	.	.	4ee-\	-ne	(8aa\L	-ne	.
!	!	!	!LO:TX:a:t=P:problem:mixedbeam	!	!	!	!	!	!	!	!	!	!	!	!	!	!
8B-\J	.	.	8B-\J	.	8ee-\J)	.	8gg\J)	.	.	.	.	.	.	.	8gg\J)	.	.
=91	=91	=91	=91	=91	=91	=91	=91	=91	=91	=91	=91	=91	=91	=91	=91	=91	=91
8BB-/L	.	.	8BB-\L	.	4ee-\	.	4gg\	.	2BB-/	-sum	2BB-/	-sum	4ee-\	di-	4gg\	di-	.
!LO:TX:a:t=P:problem:mixedbeam	!	!	!LO:TX:a:t=P:problem:mixedbeam	!	!	!	!	!	!	!	!	!	!	!	!	!	!
8B-\	.	.	8B-\	.	.	.	.	.	.	.	.	.	.	.	.	.	.
8BB-/	.	.	8BB-\	.	4dd\	.	4ff\	.	.	.	.	.	4dd\	-ctum	4ff\	-ctum	.
!LO:TX:a:t=P:problem:mixedbeam	!	!	!LO:TX:a:t=P:problem:mixedbeam	!	!	!	!	!	!	!	!	!	!	!	!	!	!
8B-\J	.	.	8B-\J	.	.	.	.	.	.	.	.	.	.	.	.	.	.
!	!	!	!	!	!	!	!LO:LB:g=original	!	!	!	!	!	!	!	!	!	!
=92	=92	=92	=92	=92	=92	=92	=92	=92	=92	=92	=92	=92	=92	=92	=92	=92	=92
8BB-/L	.	.	8BB-\L	.	4dd\	.	4ff\	.	4BB-/	be-	4BB-/	be-	4dd\	fru-	4ff\	fru-	.
!LO:TX:a:t=P:problem:mixedbeam	!	!	!LO:TX:a:t=P:problem:mixedbeam	!	!	!	!	!	!	!	!	!	!	!	!	!	!
8B-\	.	.	8B-\	.	.	.	.	.	.	.	.	.	.	.	.	.	.
8BB-/	.	.	8BB-\	.	8b-\L	.	(8dd\L	.	4BB-/	-ne-	4BB-/	-ne-	(8b-\L	-ctum	(8dd\L	-ctus	.
!LO:TX:a:t=P:problem:mixedbeam	!	!	!LO:TX:a:t=P:problem:mixedbeam	!	!	!	!	!	!	!	!	!	!	!	!	!	!
8B-\J	.	.	8B-\J	.	8cc\J	.	8ee-\J)	.	.	.	.	.	8cc\J)	.	8ee-\J)	.	.
!	!	!	!	!	!	!	!	!	!	!	!LO:LB:g=original	!	!	!	!	!	!
=93	=93	=93	=93	=93	=93	=93	=93	=93	=93	=93	=93	=93	=93	=93	=93	=93	=93
8BB-/L	.	.	8BB-\L	.	8dd\L	.	8ff\L	.	2BB-/	-di-	2BB-/	-di-	4dd\	ven-	(8ff\L	ven-	.
!LO:TX:a:t=P:problem:mixedbeam	!	!	!LO:TX:a:t=P:problem:mixedbeam	!	!	!	!	!	!	!	!	!	!	!	!	!	!
8B-\	.	.	8B-\	.	(8gg\	.	(8bb-\	.	.	.	.	.	.	.	8bb-\J)	.	.
8BB-/	.	.	8BB-\	.	8ff\	.	8aa\	.	.	.	.	.	4ee-\	-tris	(8aa\L	-tris	.
!LO:TX:a:t=P:problem:mixedbeam	!	!	!LO:TX:a:t=P:problem:mixedbeam	!	!	!	!	!	!	!	!	!	!	!	!	!	!
8B-\J	.	.	8B-\J	.	8ee-\J)	.	8gg\J)	.	.	.	.	.	.	.	8gg\J)	.	.
!	!	!	!	!	!	!	!	!	!	!	!	!	!LO:LB:g=original	!	!	!	!
=94	=94	=94	=94	=94	=94	=94	=94	=94	=94	=94	=94	=94	=94	=94	=94	=94	=94
8BB-/L	.	.	8BB-\L	.	4ee-\	.	4gg\	.	2BB-/	-ctum	2BB-/	-ctum	4ee-\	tu-	4gg\	tu-	.
!LO:TX:a:t=P:problem:mixedbeam	!	!	!LO:TX:a:t=P:problem:mixedbeam	!	!	!	!	!	!	!	!	!	!	!	!	!	!
8B-\	.	.	8B-\	.	.	.	.	.	.	.	.	.	.	.	.	.	.
8BB-/	.	.	8BB-\	.	4dd\	.	4ff\	.	.	.	.	.	4dd\	-i	4ff\	-i	.
!LO:TX:a:t=P:problem:mixedbeam	!	!	!LO:TX:a:t=P:problem:mixedbeam	!	!	!	!	!	!	!	!	!	!	!	!	!	!
8B-\J	.	.	8B-\J	.	.	.	.	.	.	.	.	.	.	.	.	.	.
=95	=95	=95	=95	=95	=95	=95	=95	=95	=95	=95	=95	=95	=95	=95	=95	=95	=95
8FF/L	.	.	8FF/L	.	4cc\	.	4ee-\	.	2F\	no-	2F/	no-	4cc\	no-	4ee-\	no-	.
!LO:TX:a:t=P:problem:mixedbeam	!	!	!LO:TX:a:t=P:problem:mixedbeam	!	!	!	!	!	!	!	!	!	!	!	!	!	!
8F\	.	.	8F/	.	.	.	.	.	.	.	.	.	.	.	.	.	.
8FF/	.	.	8FF/	.	(8a\L	.	8cc\L	.	.	.	.	.	8a\	-bis	8cc\	-bis	.
!LO:TX:a:t=P:problem:mixedbeam	!	!	!LO:TX:a:t=P:problem:mixedbeam	!	!	!	!	!	!	!	!	!	!	!	!	!	!
8F\J	.	.	8F/J	.	8b-\J)	.	8dd\J	.	.	.	.	.	8b-\	post	8dd\	post	.
=96	=96	=96	=96	=96	=96	=96	=96	=96	=96	=96	=96	=96	=96	=96	=96	=96	=96
8FF/L	.	.	8FF/L	.	4cc\	.	4ee-\	.	2F\	-bis	2F/	-bis	4cc\	hoc	4ee-\	hoc	.
!LO:TX:a:t=P:problem:mixedbeam	!	!	!LO:TX:a:t=P:problem:mixedbeam	!	!	!	!	!	!	!	!	!	!	!	!	!	!
8F\	.	.	8F/	.	.	.	.	.	.	.	.	.	.	.	.	.	.
8FF/	.	.	8FF/	.	(8a\L	.	8cc\L	.	.	.	.	.	(8a\L	ex-	(8cc\L	Ex-	.
!LO:TX:a:t=P:problem:mixedbeam	!	!	!LO:TX:a:t=P:problem:mixedbeam	!	!	!	!	!	!	!	!	!	!	!	!	!	!
8F\J	.	.	8F/J	.	8b-\J)	.	8dd\J	.	.	.	.	.	8b-\J)	.	8dd\J)	.	.
!	!	!	!LO:LB:g=original	!	!	!	!	!	!	!	!	!	!	!	!LO:LB:g=original	!	!
=97	=97	=97	=97	=97	=97	=97	=97	=97	=97	=97	=97	=97	=97	=97	=97	=97	=97
8FF/L	.	.	8FF/L	.	4cc\	.	4ee-\	.	2F\	o-	2F/	o-	4cc\	-i-	4ee-\	-i-	.
!LO:TX:a:t=P:problem:mixedbeam	!	!	!LO:TX:a:t=P:problem:mixedbeam	!	!	!	!	!	!	!	!	!	!	!	!	!	!
8F\	.	.	8F/	.	.	.	.	.	.	.	.	.	.	.	.	.	.
8FF/	.	.	8FF/	.	(8a\L	.	8cc\L	.	.	.	.	.	(8a\L	-li-	(8cc\L	-li-	.
!LO:TX:a:t=P:problem:mixedbeam	!	!	!LO:TX:a:t=P:problem:mixedbeam	!	!	!	!	!	!	!	!	!	!	!	!	!	!
8F\J	.	.	8F/J	.	8b-\J)	.	8dd\J	.	.	.	.	.	8b-\J)	.	8dd\J)	.	.
!LO:LB:g=original	!	!	!	!	!	!	!	!	!	!	!	!	!	!	!	!	!
=98	=98	=98	=98	=98	=98	=98	=98	=98	=98	=98	=98	=98	=98	=98	=98	=98	=98
8FF/L	.	.	8FF/L	.	4cc\	.	4ee-\	.	2F\	-sten-	2F/	-sten-	4cc\	-um	4ee-\	-um	.
!LO:TX:a:t=P:problem:mixedbeam	!	!	!LO:TX:a:t=P:problem:mixedbeam	!	!	!	!	!	!	!	!	!	!	!	!	!	!
8F\	.	.	8F/	.	.	.	.	.	.	.	.	.	.	.	.	.	.
8FF/	.	.	8FF/	.	4a\	.	4cc\	.	.	.	.	.	4a\	o-	4cc\	o-	.
!LO:TX:a:t=P:problem:mixedbeam	!	!	!LO:TX:a:t=P:problem:mixedbeam	!	!	!	!	!	!	!	!	!	!	!	!	!	!
8F\J	.	.	8F/J	.	.	.	.	.	.	.	.	.	.	.	.	.	.
=99	=99	=99	=99	=99	=99	=99	=99	=99	=99	=99	=99	=99	=99	=99	=99	=99	=99
8FF/L	.	.	8FF/L	.	8b-\L	.	8dd\L	.	2F\	-de	2F/	-de	8b-\	-sten-	8dd\	-sten-	.
!LO:TX:a:t=P:problem:mixedbeam	!	!	!LO:TX:a:t=P:problem:mixedbeam	!	!	!	!	!	!	!	!	!	!	!	!	!	!
8F\	.	.	8F/	.	8a\J	.	8cc\J	.	.	.	.	.	8a\	-de	8cc\	-de	.
8FF/	.	.	8FF/	.	4r	.	16.cc\LL	.	.	.	.	.	4r	.	4r	.	.
.	.	.	.	.	.	.	32b-\K	.	.	.	.	.	.	.	.	.	.
!LO:TX:a:t=P:problem:mixedbeam	!	!	!LO:TX:a:t=P:problem:mixedbeam	!	!	!	!	!	!	!	!	!	!	!	!	!	!
8F\J	.	.	8F/J	.	.	.	16.a\	.	.	.	.	.	.	.	.	.	.
.	.	.	.	.	.	.	32g\JJk	.	.	.	.	.	.	.	.	.	.
=100	=100	=100	=100	=100	=100	=100	=100	=100	=100	=100	=100	=100	=100	=100	=100	=100	=100
*	*	*	*	*	*	*	*	*	*	*	*	*	*2\right	*	*2\right	*	*
!	!	!	!	!	!	!	!	!	!LO:TX:a:t=2	!	!LO:N:vis=0	!	!	!	!	!	!
!	!	!	!	!	!	!	!	!	!LO:N:vis=0	!	!	!	!	!	!	!	!
8r	.	.	8r	.	4B-/	.	4f/	p	1r	.	1r	.	2dd\	O	2ff\	O	.
8B-\L	.	.	8B-\L	.	.	.	.	.	.	.	.	.	.	.	.	.	.
8A\	.	.	8A\	.	4r	.	4f/	.	.	.	.	.	.	.	.	.	.
8B-\J	.	.	8B-\J	.	.	.	.	.	.	.	.	.	.	.	.	.	.
=101	=101	=101	=101	=101	=101	=101	=101	=101	=101	=101	=101	=101	=101	=101	=101	=101	=101
4BB-/	.	.	4BB-/	.	4r	.	[2f/	.	.	.	.	.	4dd\	Cle-	4ff\	Cle-	.
4r	.	.	4r	.	4B-/	.	.	.	.	.	.	.	(8cc\L	-mens	(8ee-\L	-mens	.
.	.	.	.	.	.	.	.	.	.	.	.	.	8b-\J)	.	8dd\J)	.	.
!	!	!	!	!	!	!	!	!	!	!	!	!	!LO:LB:g=original	!	!	!	!
=102	=102	=102	=102	=102	=102	=102	=102	=102	=102	=102	=102	=102	=102	=102	=102	=102	=102
8r	.	.	8r	.	4A/	.	2f/_	.	4r	.	4r	.	2cc\	O	2ee-\	o	.
8F\L	.	.	8F\L	.	.	.	.	.	.	.	.	.	.	.	.	.	.
8E-\	.	.	8E-\	.	4r	.	.	.	8r	.	8r	.	.	.	.	.	.
8F\J	.	.	8F\J	.	.	.	.	.	8c\	o	8e-\	o	.	.	.	.	.
!	!	!	!	!	!	!	!	!	!LO:LB:g=original	!	!	!	!	!	!	!	!
=103	=103	=103	=103	=103	=103	=103	=103	=103	=103	=103	=103	=103	=103	=103	=103	=103	=103
4FF/	.	.	4FF/	.	4r	.	2f/_	.	4c\	pi-	(4e-\	pi-	4cc\	pi-	4ee-\	pi-	.
4r	.	.	4r	.	4A/	.	.	.	(8B-\L	.	8d\L)	.	(8b-\L	-a	(8dd\L	-a	.
.	.	.	.	.	.	.	.	.	8A\J)	.	8c\J	.	8a\J)	.	8cc\J)	.	.
=104	=104	=104	=104	=104	=104	=104	=104	=104	=104	=104	=104	=104	=104	=104	=104	=104	=104
8r	.	.	8r	.	4B-/	.	2f/_	.	4B-\	-a	4d\	-a	2b-\	o	2dd\	o	.
8B-\L	.	.	8B-\L	.	.	.	.	.	.	.	.	.	.	.	.	.	.
8A\	.	.	8A\	.	4r	.	.	.	4r	.	4r	.	.	.	.	.	.
8B-\J	.	.	8B-\J	.	.	.	.	.	.	.	.	.	.	.	.	.	.
=105	=105	=105	=105	=105	=105	=105	=105	=105	=105	=105	=105	=105	=105	=105	=105	=105	=105
!	!	!	!	!	!	!	!	!	!LO:TX:a:t=1	!	!LO:TX:a:t=1	!	!	!	!	!	!
4BB-/	.	.	4BB-/	.	4r	.	2f/_	.	2r	.	2r	.	4b-\	dul-	4dd\	dul-	.
8r	.	.	8r	.	4A/	.	.	.	.	.	.	.	4cc\	-cis	4ee-\	-cis	.
8AA/	.	.	8AA/	.	.	.	.	.	.	.	.	.	.	.	.	.	.
!	!	!	!	!	!	!	!LO:LB:g=original	!	!	!	!LO:LB:g=original	!	!	!	!	!	!
=106	=106	=106	=106	=106	=106	=106	=106	=106	=106	=106	=106	=106	=106	=106	=106	=106	=106
4BB-/	.	.	4BB-/	.	4B-/	.	2f/_	.	4r	.	4r	.	4dd\	vir-	4ff\	Vir-	.
8E-\L	.	.	8E-\L	.	4r	.	.	.	8r	.	8r	.	8cc\	-go	8ee-\	-go	.
8D\J	.	.	8D\J	.	.	.	.	.	8F\	Ma-	8B-\	Ma-	8b-\	Ma-	8dd\	Ma-	.
!	!	!	!	!	!	!	!	!	!	!	!	!	!	!	!LO:LB:g=original	!	!
=107	=107	=107	=107	=107	=107	=107	=107	=107	=107	=107	=107	=107	=107	=107	=107	=107	=107
4F\	.	.	4F\	.	4r	.	2f/]	.	4F\	-ri-	4B-\	-ri-	4b-\	-ri-	4dd\	-ri-	.
16F\LL	.	.	16F\LL	.	4A/	.	.	.	4F\	-a	4A\	-a	4a\	-a	4cc\	-a	.
16E-\	.	.	16E-\	.	.	.	.	.	.	.	.	.	.	.	.	.	.
16D\	.	.	16D\	.	.	.	.	.	.	.	.	.	.	.	.	.	.
16C\JJ	.	.	16C\JJ	.	.	.	.	.	.	.	.	.	.	.	.	.	.
!	!	!	!LO:LB:g=original	!	!	!	!	!	!	!	!	!	!	!	!	!	!
=108	=108	=108	=108	=108	=108	=108	=108	=108	=108	=108	=108	=108	=108	=108	=108	=108	=108
!	!	!	!	!	!	!	!	!	!LO:TX:a:t=1	!	!LO:TX:a:t=1	!	!	!	!	!	!
8r	.	.	8r	.	4B-/	.	4b-\	.	2r	.	2r	.	4r	.	4r	.	.
8BB-/L	.	.	8BB-/L	.	.	.	.	.	.	.	.	.	.	.	.	.	.
8D/	.	.	8D/	.	8.dd\L	p	8.ff\L	p	.	.	.	.	4a-X\	o	4dd\	o	.
8BB-/J	.	.	8BB-/J	.	.	.	.	.	.	.	.	.	.	.	.	.	.
.	.	.	.	.	16ff\Jk	.	16aa-X\Jk	.	.	.	.	.	.	.	.	.	.
=109	=109	=109	=109	=109	=109	=109	=109	=109	=109	=109	=109	=109	=109	=109	=109	=109	=109
8r	.	.	8r	.	4ee-\	f	4gg\	.	4r	.	4r	.	4g\	Cle-	4ee-\	cle-	.
!LO:TX:a:t=P:problem:mixedbeam	!	!	!LO:TX:a:t=P:problem:mixedbeam	!	!	!	!	!	!	!	!	!	!	!	!	!	!
8E-\L	.	.	8E-\L	.	.	.	.	.	.	.	.	.	.	.	.	.	.
8G\	n	.	8G\	.	8.d/L	.	8.bn\L	f	4Bn\	o	4G/	O	4g\	-mens	4dd\	-mens	.
8GG\J	.	.	8GG/J	.	.	.	.	.	.	.	.	.	.	.	.	.	.
.	.	.	.	.	16f/Jk	.	16dd\Jk	.	.	.	.	.	.	.	.	.	.
!LO:LB:g=original	!	!	!	!	!	!	!	!	!	!	!	!	!	!	!	!	!
=110	=110	=110	=110	=110	=110	=110	=110	=110	=110	=110	=110	=110	=110	=110	=110	=110	=110
8r	.	.	8r	.	4e-/	.	8dd\L	.	4c\	cle-	4G/	Cle-	4r	.	4r	.	.
8C\L	.	.	8C\L	.	.	.	8cc\J	.	.	.	.	.	.	.	.	.	.
8En\	.	.	8En\	.	8.een\L	p	4r	.	4C/	-mens	4G/	-mens	4b-\	o	4een\	o	.
8C\J	.	.	8C\J	.	.	.	.	.	.	.	.	.	.	.	.	.	.
.	.	.	.	.	16gg\Jk	.	.	.	.	.	.	.	.	.	.	.	.
!	!	!	!	!	!LO:LB:g=original	!	!	!	!	!	!	!	!LO:LB:g=original	!	!	!	!
=111	=111	=111	=111	=111	=111	=111	=111	=111	=111	=111	=111	=111	=111	=111	=111	=111	=111
8r	.	.	8r	.	4ff\	.	4aa\	.	4r	.	4r	.	4an\	pi-	4ff\	pi-	.
!LO:TX:a:t=P:problem:mixedbeam	!	!	!LO:TX:a:t=P:problem:mixedbeam	!	!	!	!	!	!	!	!	!	!	!	!	!	!
8F\L	.	.	8F\L	.	.	.	.	.	.	.	.	.	.	.	.	.	.
8A\	#	.	8A\	.	8.en/L	f	8.cc#X\L	f	4c\	o	4A/	o	4a\	-a	4een\	-a	.
8AA/J	.	.	8AA/J	.	.	.	.	.	.	.	.	.	.	.	.	.	.
.	.	.	.	.	16g/Jk	.	16een\Jk	.	.	.	.	.	.	.	.	.	.
=112	=112	=112	=112	=112	=112	=112	=112	=112	=112	=112	=112	=112	=112	=112	=112	=112	=112
8r	.	.	8r	.	4f/	.	4dd\	.	4d\	pi-	4A/	pi-	4r	.	4r	.	.
8D\L	.	.	8D\L	.	.	.	.	.	.	.	.	.	.	.	.	.	.
8F\	.	.	8F\	.	8.ff\L	p	8.aa\L	p	4D/	-a	4A/	-a	4cc\	o	4ff#X\	o	.
8D\J	.	.	8D\J	.	.	.	.	.	.	.	.	.	.	.	.	.	.
.	.	.	.	.	16aa\Jk	.	16ccc\Jk	.	.	.	.	.	.	.	.	.	.
!	!	!	!	!	!	!	!	!	!LO:LB:g=original	!	!	!	!	!	!	!	!
=113	=113	=113	=113	=113	=113	=113	=113	=113	=113	=113	=113	=113	=113	=113	=113	=113	=113
8r	.	.	8r	.	4gg\	f	4bb-\	f	4r	.	4r	.	4b-\	dul-	4gg\	dul-	.
!LO:TX:a:t=P:problem:mixedbeam	!	!	!LO:TX:a:t=P:problem:mixedbeam	!	!	!	!	!	!	!	!	!	!	!	!	!	!
8G\L	.	.	8G\L	.	.	.	.	.	.	.	.	.	.	.	.	.	.
8B-\	.	.	8B-\	.	8.f/L	.	8.dd\L	.	4d\	o	4B-\	o	4b-\	-cis	4ffn\	-cis	.
8BB-/J	.	.	8BB-/J	.	.	.	.	.	.	.	.	.	.	.	.	.	.
.	.	.	.	.	16a/Jk	.	16ff\Jk	.	.	.	.	.	.	.	.	.	.
=114	=114	=114	=114	=114	=114	=114	=114	=114	=114	=114	=114	=114	=114	=114	=114	=114	=114
8r	.	.	8r	.	4g/	.	4ee-\	.	4e-\	dul-	4B-\	dul-	4r	.	4r	.	.
8E-\L	.	.	8E-\L	.	.	.	.	.	.	.	.	.	.	.	.	.	.
*	*	*	*	*	*	*	*	*	*	*	*	*	*	*	*	*ij	*
8G\	.	.	8G\	.	8.gg\L	p	8.bb-\L	p	4E-\	-cis	4B-\	-cis	4dd\	o	4gg\	o	.
8E-\J	.	.	8E-\J	.	.	.	.	.	.	.	.	.	.	.	.	.	.
.	.	.	.	.	16bb-\Jk	.	16ddd\Jk	.	.	.	.	.	.	.	.	.	.
=115	=115	=115	=115	=115	=115	=115	=115	=115	=115	=115	=115	=115	=115	=115	=115	=115	=115
8r	.	.	8r	.	4aa\	f	4ccc\	f	4r	.	4r	.	4cc\	dul-	4aa\	dul-	.
8F\L	.	.	8F\L	.	.	.	.	.	.	.	.	.	.	.	.	.	.
8A\	6	.	8A\	.	8.a\L	.	8.cc\L	.	4A\	vir-	4c\	vir-	4cc\	-cis	4gg\	-cis	.
8F\J	.	.	8F\J	.	.	.	.	.	.	.	.	.	.	.	.	.	.
.	.	.	.	.	16cc\Jk	.	16ee-\Jk	.	.	.	.	.	.	.	.	.	.
*	*	*	*	*	*	*	*	*	*	*	*	*	*	*	*	*Xij	*
!	!	!	!	!	!	!	!	!	!	!	!LO:LB:g=original	!	!	!	!	!	!
=116	=116	=116	=116	=116	=116	=116	=116	=116	=116	=116	=116	=116	=116	=116	=116	=116	=116
4B-\	.	.	4B-\	.	4.d/	.	8.ff\L	.	4B-\	-go	4d\	-go	4dd\	Vir-	4bb-\	Vir-	.
.	.	.	.	.	.	.	16bb-\Jk	.	.	.	.	.	.	.	.	.	.
4r	.	.	4r	.	.	.	8.b-\L	.	4r	.	4r	.	8b-\	-go	8b-\	-go	.
.	.	.	.	.	8B-/	.	.	.	.	.	.	.	8b-\	Ma	8dd\	Ma-	.
.	.	.	.	.	.	.	16dd\Jk	.	.	.	.	.	.	.	.	.	.
!	!	!	!	!	!	!	!	!	!	!	!	!	!	!	!LO:LB:g=original	!	!
=117	=117	=117	=117	=117	=117	=117	=117	=117	=117	=117	=117	=117	=117	=117	=117	=117	=117
!	!	!	!	!	!	!	!	!	!LO:TX:a:t=2	!	!LO:TX:a:t=2	!	!LO:SIC:o:s=:v:=-ri-	!	!	!	!
!	!	!	!	!	!	!	!	!	!LO:N:vis=0	!	!LO:N:vis=0	!	!	!	!	!	!
4F\	.	.	4F\	.	8B-/L	.	8dd\L	.	1r	.	1r	.	8b-\	.	8dd\	-ri-	.
!	!	!	!	!	!	!	!	!	!	!	!	!	!LO:SIC:o:s=:v:=-a	!	!	!	!
.	.	.	.	.	8A/J	.	8cc\J	.	.	.	.	.	8a\	.	8cc\	-a	.
4F\	.	.	4F\	.	4r	.	4r	.	.	.	.	.	4r	.	4r	.	.
!	!	!	!	!	!	!	!LO:LB:g=original	!	!	!	!	!	!	!	!	!	!
=118	=118	=118	=118	=118	=118	=118	=118	=118	=118	=118	=118	=118	=118	=118	=118	=118	=118
!	!	!	!	!	!	!	!	!	!	!	!	!	!LO:TX:b:t=4	!	!	!	!
!	!	!	!	!	!	!	!	!	!	!	!	!	!LO:N:vis=00	!	!	!	!
4B-\	.	.	4B-\	.	4.d/	.	8.ff\L	p	.	.	.	.	0r	.	4ff\	Dul-	.
.	.	.	.	.	.	.	16bb-\Jk	.	.	.	.	.	.	.	.	.	.
4r	.	.	4r	.	.	.	8.b-\L	.	.	.	.	.	.	.	4b-\	-cis	.
.	.	.	.	.	8B-/	.	.	.	.	.	.	.	.	.	.	.	.
.	.	.	.	.	.	.	16dd\Jk	.	.	.	.	.	.	.	.	.	.
!	!	!	!LO:LB:g=original	!	!	!	!	!	!	!	!	!	!	!	!	!	!
=119	=119	=119	=119	=119	=119	=119	=119	=119	=119	=119	=119	=119	=119	=119	=119	=119	=119
!	!	!	!	!	!	!	!	!	!	!	!	!	!	!	!LO:TX:a:t=1	!	!
4F\	.	.	4F\	.	4A/	.	8cc\	.	8r	.	8r	.	.	.	2r	.	.
.	.	.	.	.	.	.	8r	.	8c\	Ma-	8e-\	Ma-	.	.	.	.	.
4F\	.	.	4F\	.	4r	.	4r	.	(8B-\L	-ri-	(8d\L	-ri-	.	.	.	.	.
.	.	.	.	.	.	.	.	.	8A\J)	.	8c\J)	.	.	.	.	.	.
=120	=120	=120	=120	=120	=120	=120	=120	=120	=120	=120	=120	=120	=120	=120	=120	=120	=120
4B-\	.	.	4B-\	.	4.d/	.	8.ff\L	.	4B-\	-a	4d\	-a	.	.	4ff\	vir-	.
.	.	.	.	.	.	.	16bb-\Jk	.	.	.	.	.	.	.	.	.	.
4r	.	.	4r	.	.	.	8.b-\L	.	4r	.	4r	.	.	.	4b-\	-go	.
.	.	.	.	.	8B-/	.	.	.	.	.	.	.	.	.	.	.	.
.	.	.	.	.	.	.	16dd\Jk	.	.	.	.	.	.	.	.	.	.
=121	=121	=121	=121	=121	=121	=121	=121	=121	=121	=121	=121	=121	=121	=121	=121	=121	=121
!	!	!	!	!	!	!	!	!	!	!	!	!	!	!	!LO:TX:a:t=1	!	!
4F\	.	.	4F\	.	4A/	.	8cc\	.	8r	.	8r	.	.	.	2r	.	.
*	*	*	*	*	*	*	*	*	*	*	*	*ij	*	*	*	*	*
.	.	.	.	.	.	.	8r	.	8c\	Ma-	8e-\	Ma-	.	.	.	.	.
4F\	.	.	4F\	.	4r	.	4r	.	(8B-\L	-ri-	(8d\L	-ri-	.	.	.	.	.
.	.	.	.	.	.	.	.	.	8A\J)	.	8c\J)	.	.	.	.	.	.
!	!	!	!	!	!	!	!	!	!LO:LB:g=original	!	!	!	!	!	!	!	!
=122	=122	=122	=122	=122	=122	=122	=122	=122	=122	=122	=122	=122	=122	=122	=122	=122	=122
8BB-/L	.	.	8BB-/L	.	8b-/	.	8r	.	4B-\	-a	4d\	-a	2B-/	o	8r	.	.
!	!	!	!	!	!	!	!	!	!	!	!	!	!	!	!LO:TUP:a:problem:klamra łukowa	!	!
*	*	*	*	*	*	*	*Xtuplet	*	*	*	*	*	*	*	*	*	*
8E-/	.	.	8E-/	.	4b-/	.	24bb-\LL	.	.	.	.	.	.	.	24bb-\LL	Ma-	.
.	.	.	.	.	.	.	24aa\	.	.	.	.	.	.	.	24aa\	.	.
.	.	.	.	.	.	.	24gg\JJ	.	.	.	.	.	.	.	24gg\JJ	.	.
8D/	.	.	8D/	.	.	.	8ff\L	.	4r	.	4r	.	.	.	8ff\L	.	.
*	*	*	*	*	*	*	*tuplet	*	*	*	*	*	*	*	*	*	*
!	!	!	!	!	!	!	!LO:TUP:a:problem:klamra łukowa	!	!	!	!	!	!	!	!LO:TUP:a:problem:klamra łukowa	!	!
8C/J	.	.	8C/J	.	8b-/	.	24gg\L	.	.	.	.	.	.	.	24gg\L	.	.
.	.	.	.	.	.	.	24ff\	.	.	.	.	.	.	.	24ff\	.	.
.	.	.	.	.	.	.	24ee-\JJ	.	.	.	.	.	.	.	24ee-\JJ	.	.
*	*	*	*	*	*	*	*	*	*	*	*	*Xij	*	*	*	*	*
!LO:LB:g=original	!	!	!	!	!LO:LB:g=original	!	!	!	!	!	!	!	!	!	!	!	!
=123	=123	=123	=123	=123	=123	=123	=123	=123	=123	=123	=123	=123	=123	=123	=123	=123	=123
!LO:TX:a:t=P:problem:mixedbeam t. 123-124	!	!	!LO:TX:a:t=P:problem:mixedbeam t. 123-124	!	!	!	!	!	!	!	!	!	!	!	!	!	!
8BB-/L	.	.	8BB-/L	.	8b-\	.	8dd\L	.	2BB-/	dul-	8B-\	Ma-	2B-/	dul-	8dd\L	.	.
!	!	!	!	!	!	!	!LO:TUP:a:problem:klamra łukowa	!	!	!	!	!	!	!	!LO:TUP:a:problem:klamra łukowa	!	!
8e-\	.	.	8e-\	.	4b-\	.	24bb-\L	.	.	.	8e-\	-ri-	.	.	24bb-\L	.	.
.	.	.	.	.	.	.	24aa\	.	.	.	.	.	.	.	24aa\	.	.
.	.	.	.	.	.	.	24gg\JJ	.	.	.	.	.	.	.	24gg\JJ	.	.
8d\	.	.	8d\	.	.	.	8ff\L	.	.	.	(8d\L	.	.	.	8ff\L	.	.
!	!	!	!	!	!	!	!LO:TUP:a:problem:klamra łukowa	!	!	!	!	!	!	!	!LO:TUP:a:problem:klamra łukowa	!	!
8c\J	.	.	8c\J	.	8b-\	.	24gg\L	.	.	.	8c\J)	.	.	.	24gg\L	.	.
.	.	.	.	.	.	.	24ff\	.	.	.	.	.	.	.	24ff\	.	.
.	.	.	.	.	.	.	24ee-\JJ	.	.	.	.	.	.	.	24ee-\JJ	.	.
!	!	!	!	!	!	!	!	!	!	!	!	!	!LO:LB:g=original	!	!	!	!
=124	=124	=124	=124	=124	=124	=124	=124	=124	=124	=124	=124	=124	=124	=124	=124	=124	=124
8B-\L	.	.	8B-\L	.	8b-\	.	8dd\L	.	2BB-/	-cis	8B-\	-a	2B-/	-cis	8dd\L	.	.
!	!	!	!	!	!	!	!LO:TUP:a:problem:klamra łukowa	!	!	!	!	!	!	!	!LO:TUP:a:problem:klamra łukowa	!	!
8E-\	.	.	8E-\	.	4b-\	.	24ee-\L	.	.	.	8c\	Ma-	.	.	24ee-\L	.	.
.	.	.	.	.	.	.	24dd\	.	.	.	.	.	.	.	24dd\	.	.
.	.	.	.	.	.	.	24cc\JJ	.	.	.	.	.	.	.	24cc\JJ	.	.
8F\	.	.	8F\	.	.	.	8b-\L	.	.	.	(8B-\L	-ri-	.	.	8b-\L	-ri-	.
!LO:TX:a:t=P:problem:mixedbeam	!	!	!	!	!	!	!	!	!	!	!	!	!	!	!	!	!
8FF/J	.	.	8FF/J	.	8b-\	.	8cc\J	.	.	.	8A\J)	.	.	.	8cc\J	.	.
!	!	!	!	!	!	!	!	!	!	!	!	!	!	!	!LO:TX:b:i:t=Volti cito	!	!
!	!	!	!	!	!	!	!	!	!	!	!LO:LB:g=original	!	!	!	!LO:PB:g=original	!	!
=125	=125	=125	=125	=125	=125	=125	=125	=125	=125	=125	=125	=125	=125	=125	=125	=125	=125
8BB-/L	.	.	8BB-/L	.	8b-\	.	8dd\L	.	2BB-/	Vir-	4B-\	-a	2B-/	Vir-	8b-\L	-a	.
*	*	*	*	*	*	*	*	*	*	*	*	*	*	*	*Xtuplet	*	*
!	!	!	!	!	!	!	!LO:TUP:a:problem:klamra łukowa	!	!	!	!	!	!	!	!	!	!
8E-/	.	.	8E-/	.	4B-/	.	24bb-\L	.	.	.	.	.	.	.	24bb-\L	Ma-	.
.	.	.	.	.	.	.	24aa\	.	.	.	.	.	.	.	24aa\	.	.
.	.	.	.	.	.	.	24gg\JJ	.	.	.	.	.	.	.	24gg\JJ	.	.
8D/	.	.	8D/	.	.	.	8ff\L	.	.	.	4r	.	.	.	8ff\L	.	.
*	*	*	*	*	*	*	*	*	*	*	*	*	*	*	*tuplet	*	*
!	!	!	!	!	!	!	!LO:TUP:a:problem:klamra łukowa	!	!	!	!	!	!	!	!LO:TUP:a:problem:klamra łukowa	!	!
8C/J	.	.	8C/J	.	8B-/	.	24gg\L	.	.	.	.	.	.	.	24gg\L	.	.
.	.	.	.	.	.	.	24ff\	.	.	.	.	.	.	.	24ff\	.	.
.	.	.	.	.	.	.	24ee-\JJ	.	.	.	.	.	.	.	24ee-\JJ	.	.
!	!	!	!	!	!	!	!LO:TX:b:t=Volti.	!	!	!	!	!	!	!	!	!	!
!	!	!	!	!	!	!	!LO:PB:g=original	!	!	!	!	!	!	!	!	!	!
=126	=126	=126	=126	=126	=126	=126	=126	=126	=126	=126	=126	=126	=126	=126	=126	=126	=126
!LO:TX:a:t=P:problem:mixedbeam	!	!	!LO:TX:a:t=P:problem:mixedbeam t. 126-127	!	!	!	!	!	!	!	!	!	!	!	!	!	!
8BB-/L	.	.	8BB-/L	.	8B-/	.	8dd\L	.	4BB-/	-go	8r	.	4B-/	-go	8dd\L	.	.
!	!	!	!	!	!	!	!LO:TUP:a:problem:klamra łukowa	!	!	!	!	!	!	!	!LO:TUP:a:problem:klamra łukowa	!	!
8e-\	.	.	8e-\	.	4B-/	.	24bb-\L	.	.	.	8e-\	Ma-	.	.	24bb-\L	.	.
.	.	.	.	.	.	.	24aa\	.	.	.	.	.	.	.	24aa\	.	.
.	.	.	.	.	.	.	24gg\JJ	.	.	.	.	.	.	.	24gg\JJ	.	.
8d\	.	.	8d\	.	.	.	8ff\L	.	4BB-/	Ma-	(8d\L	-ri-	4B-/	Ma-	8ff\L	.	.
!	!	!	!	!	!	!	!LO:TUP:a:problem:klamra łukowa	!	!	!	!	!	!	!	!LO:TUP:a:problem:klamra łukowa	!	!
8c\J	.	.	8c\J	.	8B-/	.	24gg\L	.	.	.	8c\J)	.	.	.	24gg\L	.	.
.	.	.	.	.	.	.	24ff\	.	.	.	.	.	.	.	24ff\	.	.
.	.	.	.	.	.	.	24ee-\JJ	.	.	.	.	.	.	.	24ee-\JJ	.	.
=127	=127	=127	=127	=127	=127	=127	=127	=127	=127	=127	=127	=127	=127	=127	=127	=127	=127
8B-\L	.	.	8B-\L	.	8B-/	.	8dd\L	.	2BB-/	-ri-	8B-\	-a	2B-/	-ri-	8dd\L	.	.
!	!	!	!	!	!	!	!LO:TUP:a:problem:klamra łukowa	!	!	!	!	!	!	!	!LO:TUP:a:problem:klamra łukowa	!	!
8E-\	.	.	8E-\	.	4B-/	.	24ee-\L	.	.	.	8c\	Ma-	.	.	24ee-\L	.	.
.	.	.	.	.	.	.	24dd\	.	.	.	.	.	.	.	24dd\	.	.
.	.	.	.	.	.	.	24cc\JJ	.	.	.	.	.	.	.	24cc\JJ	.	.
8F\	.	.	8F\	.	.	.	8b-\L	.	.	.	(8B-\L	-ri-	.	.	8b-\L	-ri-	.
!LO:TX:a:t=P:problem:mixedbeam	!	!	!	!	!	!	!	!	!	!	!	!	!	!	!	!	!
8FF/J	.	.	8FF/J	.	8A/	.	8cc\J	.	.	.	8A\J)	.	.	.	8cc\J	.	.
=128	=128	=128	=128	=128	=128	=128	=128	=128	=128	=128	=128	=128	=128	=128	=128	=128	=128
4BB-/	.	.	4BB-/	.	4.d/	.	8.ff\L	.	4BB-/	-a	4B-\	-a	4B-/	-a	4b-\	-a	.
.	.	.	.	.	.	.	16bb-\Jk	.	.	.	.	.	.	.	.	.	.
4BB-/	.	.	4BB-/	.	.	.	8.b-\L	.	4r	.	4r	.	4r	.	4r	.	.
.	.	.	.	.	8B-/	.	.	.	.	.	.	.	.	.	.	.	.
.	.	.	.	.	.	.	16dd\Jk	.	.	.	.	.	.	.	.	.	.
=129	=129	=129	=129	=129	=129	=129	=129	=129	=129	=129	=129	=129	=129	=129	=129	=129	=129
!	!	!	!	!	!	!	!	!	!LO:TX:a:t=8.	!	!LO:TX:a:t=8.	!	!LO:TX:b:t=8	!	!LO:TX:a:t=8	!	!
!	!	!	!	!	!	!	!	!	!LO:N:vis=00	!	!LO:N:vis=00	!	!LO:N:vis=00	!	!LO:N:vis=00	!	!
8r	.	.	8r	.	4A/	.	8dd\L	.	0r	.	0r	.	0r	.	0r	.	.
16F\LL	.	.	16F\LL	.	.	.	8cc\J	.	.	.	.	.	.	.	.	.	.
16E-\JJ	.	.	16E-\JJ	.	.	.	.	.	.	.	.	.	.	.	.	.	.
!LO:TX:a:t=P:problem:mixedbeam	!	!	!LO:TX:a:t=P:problem:mixedbeam	!	!	!	!	!	!	!	!	!	!	!	!	!	!
8F\L	.	.	8F/L	.	8r	.	8r	.	.	.	.	.	.	.	.	.	.
!	!	!	!	!	!	!LO:DY:a	!	!	!	!	!	!	!	!	!	!	!
8FF/J	.	.	8FF/J	.	8a\	p	8cc\	p	.	.	.	.	.	.	.	.	.
!	!	!	!LO:LB:g=original	!	!	!	!	!	!	!	!	!	!	!	!	!	!
=130	=130	=130	=130	=130	=130	=130	=130	=130	=130	=130	=130	=130	=130	=130	=130	=130	=130
4F\	.	p	4F\	p	8.a\L	.	8.cc\L	.	.	.	.	.	.	.	.	.	.
.	.	.	.	.	16cc\K	.	16ee-\Jk	.	.	.	.	.	.	.	.	.	.
4F\	.	.	4F\	.	8.b-\	.	8.dd\L	.	.	.	.	.	.	.	.	.	.
.	.	.	.	.	16a\Jk	.	16cc\Jk	.	.	.	.	.	.	.	.	.	.
=131	=131	=131	=131	=131	=131	=131	=131	=131	=131	=131	=131	=131	=131	=131	=131	=131	=131
!LO:TX:a:t=P:problem:mixedbeam	!	!	!LO:TX:a:t=P:problem:mixedbeam	!	!	!	!	!	!	!	!	!	!	!	!	!	!
8BB-/L	.	.	8BB-/L	.	8b-\L	f	8dd\L	f	.	.	.	.	.	.	.	.	.
!LO:TX:a:t=P:problem:f=f.	!	!	!	!	!	!	!LO:TUP:a:problem:klamra łukowa	!	!	!	!	!	!	!	!	!	!
8B-\	.	f	(>8B-\	f	(8dd\	.	24bb-\L	.	.	.	.	.	.	.	.	.	.
.	.	.	.	.	.	.	24aa\	.	.	.	.	.	.	.	.	.	.
.	.	.	.	.	.	.	24gg\JJ	.	.	.	.	.	.	.	.	.	.
8A\	.	.	8A\	.	8cc\	.	16ff~\LL	.	.	.	.	.	.	.	.	.	.
.	.	.	.	.	.	.	16ff~\	.	.	.	.	.	.	.	.	.	.
8B-\J	.	.	8B-\J)	.	8dd\J)	.	16ff~\	.	.	.	.	.	.	.	.	.	.
.	.	.	.	.	.	.	16ff~\JJ	.	.	.	.	.	.	.	.	.	.
!	!	!	!	!	!	!	!LO:LB:g=original	!	!	!	!	!	!	!	!	!	!
=132	=132	=132	=132	=132	=132	=132	=132	=132	=132	=132	=132	=132	=132	=132	=132	=132	=132
!	!	!	!	!	!	!LO:DY:a	!	!	!	!	!	!	!	!	!	!	!
4F\	.	p	4F\	p	8.a\L	p	8.cc\L	p	.	.	.	.	.	.	.	.	.
.	.	.	.	.	16cc\K	.	16ee-\Jk	.	.	.	.	.	.	.	.	.	.
4F\	.	.	4F\	.	8.b-\	.	8.dd\L	.	.	.	.	.	.	.	.	.	.
.	.	.	.	.	16a\Jk	.	16cc\Jk	.	.	.	.	.	.	.	.	.	.
=133	=133	=133	=133	=133	=133	=133	=133	=133	=133	=133	=133	=133	=133	=133	=133	=133	=133
!	!	!	!	!	!	!	!	!	!LO:N:vis=00	!	!LO:N:vis=00	!	!LO:N:vis=00	!	!LO:N:vis=00	!	!
8B-\L	.	.	8B-\L	f	8b-/	f	8dd\L	.	0r	.	0r	.	0r	.	0r	.	.
!	!	!	!	!	!	!	!LO:TUP:a:problem:klamra łukowa	!	!	!	!	!	!	!	!	!	!
8e-\	.	f	8e-\	.	4b-/	.	24bb-\L	f	.	.	.	.	.	.	.	.	.
.	.	.	.	.	.	.	24aa\	.	.	.	.	.	.	.	.	.	.
.	.	.	.	.	.	.	24gg\JJ	.	.	.	.	.	.	.	.	.	.
8d\	.	.	8d\	.	.	.	8ff\L	.	.	.	.	.	.	.	.	.	.
!	!	!	!	!	!	!	!LO:TUP:a:problem:klamra łukowa	!	!	!	!	!	!	!	!	!	!
8c\J	.	.	8c\J	.	8b-/	.	24gg\L	.	.	.	.	.	.	.	.	.	.
.	.	.	.	.	.	.	24ff\	.	.	.	.	.	.	.	.	.	.
.	.	.	.	.	.	.	24ee-\JJ	.	.	.	.	.	.	.	.	.	.
!LO:LB:g=original	!	!	!	!	!LO:LB:g=original	!	!	!	!	!	!	!	!	!	!	!	!
=134	=134	=134	=134	=134	=134	=134	=134	=134	=134	=134	=134	=134	=134	=134	=134	=134	=134
8B-\L	.	.	8B-\L	.	8b-/	p	8dd\L	.	.	.	.	.	.	.	.	.	.
!	!	!	!	!	!	!	!LO:TUP:a:problem:klamra łukowa	!	!	!	!	!	!	!	!	!	!
8e-\	.	.	8e-\	.	4b-/	.	24bb-\L	.	.	.	.	.	.	.	.	.	.
.	.	.	.	.	.	.	24aa\	p	.	.	.	.	.	.	.	.	.
.	.	.	.	.	.	.	24gg\JJ	.	.	.	.	.	.	.	.	.	.
8d\	.	.	8d\	.	.	.	8ff\L	.	.	.	.	.	.	.	.	.	.
8c\J	.	.	8c\J	.	8b-/	.	24gg\L	.	.	.	.	.	.	.	.	.	.
.	.	.	.	.	.	.	24ff\	.	.	.	.	.	.	.	.	.	.
.	.	.	.	.	.	.	24ee-\JJ	.	.	.	.	.	.	.	.	.	.
=135	=135	=135	=135	=135	=135	=135	=135	=135	=135	=135	=135	=135	=135	=135	=135	=135	=135
!LO:TX:a:t=P:problem:mixedbeam	!	!	!LO:TX:a:t=P:problem:mixedbeam	!	!	!	!LO:TX:a:t=P:problem:f=for	!	!	!	!	!	!	!	!	!	!
8B-\L	.	.	8B-\L	.	8b-/	f	8dd\L	f	.	.	.	.	.	.	.	.	.
!	!	!	!	!	!	!	!LO:TUP:a:problem:klamra łukowa	!	!	!	!	!	!	!	!	!	!
8E-\	.	.	8E-\	.	4b-/	.	24ee-\L	.	.	.	.	.	.	.	.	.	.
.	.	.	.	.	.	.	24dd\	.	.	.	.	.	.	.	.	.	.
.	.	.	.	.	.	.	24cc\JJ	.	.	.	.	.	.	.	.	.	.
8F\	.	.	8F\	.	.	.	8b-\L	.	.	.	.	.	.	.	.	.	.
8FF/J	.	.	8FF/J	.	8a/	.	8cc\J	.	.	.	.	.	.	.	.	.	.
=136	=136	=136	=136	=136	=136	=136	=136	=136	=136	=136	=136	=136	=136	=136	=136	=136	=136
4BB-/	.	.	4BB-/	.	8b-/L	.	8b-/L	.	.	.	.	.	.	.	.	.	.
.	.	.	.	.	8f/	.	8f/	.	.	.	.	.	.	.	.	.	.
4r	.	.	4r	.	8B-/J	.	8B-/J	.	.	.	.	.	.	.	.	.	.
.	.	.	.	.	8r	.	8r	.	.	.	.	.	.	.	.	.	.
==;;	==	==	==;;	==	==;;	==	==;;	==	==;;	==	==;;	==	==;;	==	==;;	==	==
*-	*-	*-	*-	*-	*-	*-	*-	*-	*-	*-	*-	*-	*-	*-	*-	*-	*-
!!!system-decoration: [(s1,s2,s3,s4,)][(s5,s6,)][(s7,s8)]
!!!RDF**kern: > = above
!!!RDF**kern: < = below
!!!RDF**dynam: p = p:
!!!RDF**dynam: f = f:
!!!EED: Leszek Kubiak
!!!EST: 2020-06-30
